xyodfish/robot_kinematic_viewer/config/trajectories/galbot_g1_dance_full.csv
time,chassis_x,chassis_y,chassis_yaw,leg_joint1,leg_joint2,leg_joint3,leg_joint4,leg_joint5,head_joint1,head_joint2,left_arm_joint1,left_arm_joint2,left_arm_joint3,left_arm_joint4,left_arm_joint5,left_arm_joint6,left_arm_joint7,right_arm_joint1,right_arm_joint2,right_arm_joint3,right_arm_joint4,right_arm_joint5,right_arm_joint6,right_arm_joint7
0,0,0,0,0.06,0.22,0.14,0,0,0,0,0,0,0,0,0,0,0,0,0,0,0,0,0,0
0.0321701,0,0,0,0.0606665,0.222436,0.141678,0,0,0,0,0,0,0,0,0,0,0,0,0,0,0,0,0,0
0.0643401,0,0,0,0.0626659,0.229744,0.146711,0,0,0,0,0,0,0,0,0,0,0,0,0,0,0,0,0,0
0.0965102,0,0,0,0.0659983,0.241925,0.155099,0,0,0,0,0,0,0,0,0,0,0,0,0,0,0,0,0,0
0.12868,0,0,0,0.0706636,0.258977,0.166843,0,0,0,0,0,0,0,0,0,0,0,0,0,0,0,0,0,0
0.16085,0,0,0,0.0766619,0.280902,0.181942,0,0,0,0,0,0,0,0,0,0,0,0,0,0,0,0,0,0
0.19302,0,0,0,0.0839931,0.307699,0.200396,0,0,0,0,0,0,0,0,0,0,0,0,0,0,0,0,0,0
0.22519,0,0,0,0.0926573,0.339368,0.222206,0,0,0,0,0,0,0,0,0,0,0,0,0,0,0,0,0,0
0.257361,0,0,0,0.102654,0.375909,0.247371,0,0,0,0,0,0,0,0,0,0,0,0,0,0,0,0,0,0
0.289531,0,0,0,0.113984,0.417323,0.275892,0,0,0,0,0,0,0,0,0,0,0,0,0,0,0,0,0,0
0.321701,0,0,0,0.126648,0.463608,0.307768,0,0,0,0,0,0,0,0,0,0,0,0,0,0,0,0,0,0
0.353871,0,0,0,0.140643,0.514766,0.342999,0,0,0,0,0,0,0,0,0,0,0,0,0,0,0,0,0,0
0.386041,0,0,0,0.155972,0.570796,0.381586,0,0,0,0,0,0,0,0,0,0,0,0,0,0,0,0,0,0
0.418211,0,0,0,0.172634,0.631698,0.423528,0,0,0,0,0,0,0,0,0,0,0,0,0,0,0,0,0,0
0.450381,0,0,0,0.190629,0.697472,0.468825,0,0,0,0,0,0,0,0,0,0,0,0,0,0,0,0,0,0
0.482551,0,0,0,0.209874,0.767814,0.517268,0,0,0,0,0,0,0,0,0,0,0,0,0,0,0,0,0,0
0.514721,0,0,0,0.228535,0.836024,0.564243,0,0,0,0,0,0,0,0,0,0,0,0,0,0,0,0,0,0
0.546891,0,0,0,0.245863,0.899362,0.607863,0,0,0,0,0,0,0,0,0,0,0,0,0,0,0,0,0,0
0.579061,0,0,0,0.261859,0.957828,0.648127,0,0,0,0,0,0,0,0,0,0,0,0,0,0,0,0,0,0
0.611231,0,0,0,0.276521,1.01142,0.685036,0,0,0,0,0,0,0,0,0,0,0,0,0,0,0,0,0,0
0.643401,0,0,0,0.289851,1.06014,0.718589,0,0,0,0,0,0,0,0,0,0,0,0,0,0,0,0,0,0
0.675571,0,0,0,0.301847,1.10399,0.748788,0,0,0,0,0,0,0,0,0,0,0,0,0,0,0,0,0,0
0.707741,0,0,0,0.312511,1.14297,0.775631,0,0,0,0,0,0,0,0,0,0,0,0,0,0,0,0,0,0
0.739911,0,0,0,0.321841,1.17708,0.799118,0,0,0,0,0,0,0,0,0,0,0,0,0,0,0,0,0,0
0.772082,0,0,0,0.329839,1.20631,0.81925,0,0,0,0,0,0,0,0,0,0,0,0,0,0,0,0,0,0
0.804252,0,0,0,0.336504,1.23067,0.836027,0,0,0,0,0,0,0,0,0,0,0,0,0,0,0,0,0,0
0.836422,0,0,0,0.341836,1.25016,0.849448,0,0,0,0,0,0,0,0,0,0,0,0,0,0,0,0,0,0
0.868592,0,0,0,0.345835,1.26477,0.859515,0,0,0,0,0,0,0,0,0,0,0,0,0,0,0,0,0,0
0.900762,0,0,0,0.3485,1.27452,0.866225,0,0,0,0,0,0,0,0,0,0,0,0,0,0,0,0,0,0
0.932932,0,0,0,0.349833,1.27939,0.869581,0,0,0,0,0,0,0,0,0,0,0,0,0,0,0,0,0,0
0.961066,0,0,0,0.35,1.28,0.87,0,0,0,0,0.000247427,-0.000293676,5.4804e-05,-0.000122095,6.75223e-05,-7.09909e-05,-1.1562e-05,-0.000247427,0.000293676,-5.4804e-05,0.000122095,-6.75223e-05,7.09909e-05,1.1562e-05
0.993195,0,0,0,0.35,1.28,0.87,0,0,0,0,0.00332652,-0.0039483,0.00073681,-0.0016415,0.000907799,-0.000954433,-0.000155445,-0.00332652,0.0039483,-0.00073681,0.0016415,-0.000907799,0.000954433,0.000155445
1.02533,0,0,0,0.35,1.28,0.87,0,0,0,0,0.00992459,-0.0117797,0.00219825,-0.00489737,0.00270839,-0.00284752,-0.000463766,-0.00992459,0.0117797,-0.00219825,0.00489737,-0.00270839,0.00284752,0.000463766
1.05745,0,0,0,0.35,1.28,0.87,0,0,0,0,0.0200416,-0.0237877,0.00443913,-0.0098897,0.0054693,-0.00575026,-0.000936524,-0.0200416,0.0237877,-0.00443913,0.0098897,-0.0054693,0.00575026,0.000936524
1.08958,0,0,0,0.35,1.28,0.87,0,0,0,0,0.0336776,-0.0399725,0.00745944,-0.0166185,0.00919053,-0.00966264,-0.00157372,-0.0336776,0.0399725,-0.00745944,0.0166185,-0.00919053,0.00966264,0.00157372
1.12171,0,0,0,0.35,1.28,0.87,0,0,0,0,0.0508326,-0.060334,0.0112592,-0.0250837,0.0138721,-0.0145847,-0.00237535,-0.0508326,0.060334,-0.0112592,0.0250837,-0.0138721,0.0145847,0.00237535
1.15384,0,0,0,0.35,1.28,0.87,0,0,0,0,0.0715065,-0.0848722,0.0158384,-0.0352855,0.0195139,-0.0205164,-0.00334143,-0.0715065,0.0848722,-0.0158384,0.0352855,-0.0195139,0.0205164,0.00334143
1.18597,0,0,0,0.35,1.28,0.87,0,0,0,0,0.0956994,-0.113587,0.021197,-0.0472236,0.0261161,-0.0274577,-0.00447194,-0.0956994,0.113587,-0.021197,0.0472236,-0.0261161,0.0274577,0.00447194
1.2181,0,0,0,0.35,1.28,0.87,0,0,0,0,0.123411,-0.146479,0.027335,-0.0608983,0.0336786,-0.0354087,-0.00576688,-0.123411,0.146479,-0.027335,0.0608983,-0.0336786,0.0354087,0.00576688
1.25023,0,0,0,0.35,1.28,0.87,0,0,0,0,0.154642,-0.183547,0.0342525,-0.0763094,0.0422014,-0.0443693,-0.00722627,-0.154642,0.183547,-0.0342525,0.0763094,-0.0422014,0.0443693,0.00722627
1.28236,0,0,0,0.35,1.28,0.87,0,0,0,0,0.189392,-0.224792,0.0419494,-0.093457,0.0516845,-0.0543396,-0.00885009,-0.189392,0.224792,-0.0419494,0.093457,-0.0516845,0.0543396,0.00885009
1.31449,0,0,0,0.35,1.28,0.87,0,0,0,0,0.227661,-0.270214,0.0504258,-0.112341,0.062128,-0.0653195,-0.0106384,-0.227661,0.270214,-0.0504258,0.112341,-0.062128,0.0653195,0.0106384
1.34662,0,0,0,0.35,1.28,0.87,0,0,0,0,0.269448,-0.319813,0.0596816,-0.132961,0.0735317,-0.077309,-0.0125911,-0.269448,0.319813,-0.0596816,0.132961,-0.0735317,0.077309,0.0125911
1.37875,0,0,0,0.35,1.28,0.87,0,0,0,0,0.314755,-0.373588,0.0697168,-0.155318,0.0858958,-0.0903083,-0.0147082,-0.314755,0.373588,-0.0697168,0.155318,-0.0858958,0.0903083,0.0147082
1.41088,0,0,0,0.35,1.28,0.87,0,0,0,0,0.363581,-0.43154,0.0805315,-0.179412,0.0992202,-0.104317,-0.0169898,-0.363581,0.43154,-0.0805315,0.179412,-0.0992202,0.104317,0.0169898
1.44301,0,0,0,0.35,1.28,0.87,0,0,0,0,0.415926,-0.493669,0.0921256,-0.205242,0.113505,-0.119336,-0.0194358,-0.415926,0.493669,-0.0921256,0.205242,-0.113505,0.119336,0.0194358
1.47514,0,0,0,0.35,1.28,0.87,0,0,0,0,0.471789,-0.559974,0.104499,-0.232808,0.12875,-0.135364,-0.0220462,-0.471789,0.559974,-0.104499,0.232808,-0.12875,0.135364,0.0220462
1.50727,0,0,0,0.35,1.28,0.87,0,0,0,0,0.531175,-0.63046,0.117653,-0.262112,0.144956,-0.152403,-0.0248213,-0.531175,0.63046,-0.117653,0.262112,-0.144956,0.152403,0.0248213
1.5394,0,0,0,0.35,1.28,0.87,0,0,0,0,0.59098,-0.701444,0.130899,-0.291624,0.161277,-0.169562,-0.0276159,-0.59098,0.701444,-0.130899,0.291624,-0.161277,0.169562,0.0276159
1.57153,0,0,0,0.35,1.28,0.87,0,0,0,0,0.647284,-0.768272,0.14337,-0.319407,0.176642,-0.185716,-0.0302469,-0.647284,0.768272,-0.14337,0.319407,-0.176642,0.185716,0.0302469
1.60366,0,0,0,0.35,1.28,0.87,0,0,0,0,0.700068,-0.830922,0.155062,-0.345454,0.191047,-0.200861,-0.0327135,-0.700068,0.830922,-0.155062,0.345454,-0.191047,0.200861,0.0327135
1.63579,0,0,0,0.35,1.28,0.87,0,0,0,0,0.749334,-0.889396,0.165974,-0.369765,0.204491,-0.214996,-0.0350156,-0.749334,0.889396,-0.165974,0.369765,-0.204491,0.214996,0.0350156
1.66792,0,0,0,0.35,1.28,0.87,0,0,0,0,0.795081,-0.943694,0.176107,-0.392339,0.216975,-0.228121,-0.0371533,-0.795081,0.943694,-0.176107,0.392339,-0.216975,0.228121,0.0371533
1.70005,0,0,0,0.35,1.28,0.87,0,0,0,0,0.837308,-0.993814,0.18546,-0.413176,0.228499,-0.240237,-0.0391266,-0.837308,0.993814,-0.18546,0.413176,-0.228499,0.240237,0.0391266
1.73218,0,0,0,0.35,1.28,0.87,0,0,0,0,0.876017,-1.03976,0.194034,-0.432277,0.239063,-0.251343,-0.0409354,-0.876017,1.03976,-0.194034,0.432277,-0.239063,0.251343,0.0409354
1.76431,0,0,0,0.35,1.28,0.87,0,0,0,0,0.911207,-1.08153,0.201828,-0.449642,0.248666,-0.26144,-0.0425797,-0.911207,1.08153,-0.201828,0.449642,-0.248666,0.26144,0.0425797
1.79644,0,0,0,0.35,1.28,0.87,0,0,0,0,0.942877,-1.11912,0.208843,-0.46527,0.257309,-0.270526,-0.0440597,-0.942877,1.11912,-0.208843,0.46527,-0.257309,0.270526,0.0440597
1.82857,0,0,0,0.35,1.28,0.87,0,0,0,0,0.971029,-1.15253,0.215078,-0.479162,0.264991,-0.278604,-0.0453752,-0.971029,1.15253,-0.215078,0.479162,-0.264991,0.278604,0.0453752
1.8607,0,0,0,0.35,1.28,0.87,0,0,0,0,0.995662,-1.18177,0.220534,-0.491317,0.271713,-0.285671,-0.0465263,-0.995662,1.18177,-0.220534,0.491317,-0.271713,0.285671,0.0465263
1.89283,0,0,0,0.35,1.28,0.87,0,0,0,0,1.01678,-1.20683,0.225211,-0.501736,0.277475,-0.291729,-0.0475129,-1.01678,1.20683,-0.225211,0.501736,-0.277475,0.291729,0.0475129
1.92496,0,0,0,0.35,1.28,0.87,0,0,0,0,1.03437,-1.22771,0.229108,-0.510418,0.282277,-0.296777,-0.0483351,-1.03437,1.22771,-0.229108,0.510418,-0.282277,0.296777,0.0483351
1.95709,0,0,0,0.35,1.28,0.87,0,0,0,0,1.04845,-1.24442,0.232226,-0.517364,0.286118,-0.300816,-0.0489928,-1.04845,1.24442,-0.232226,0.517364,-0.286118,0.300816,0.0489928
1.98922,0,0,0,0.35,1.28,0.87,0,0,0,0,1.059,-1.25695,0.234564,-0.522574,0.288999,-0.303845,-0.0494861,-1.059,1.25695,-0.234564,0.522574,-0.288999,0.303845,0.0494861
2.02135,0,0,0,0.35,1.28,0.87,0,0,0,0,1.06604,-1.2653,0.236123,-0.526046,0.29092,-0.305864,-0.049815,-1.06604,1.2653,-0.236123,0.526046,-0.29092,0.305864,0.049815
2.05348,0,0,0,0.35,1.28,0.87,0,0,0,0,1.06956,-1.26948,0.236903,-0.527783,0.29188,-0.306874,-0.0499794,-1.06956,1.26948,-0.236903,0.527783,-0.29188,0.306874,0.0499794
2.08155,-1.42236e-05,0.00754282,0.0150857,0.35,1.28,0.87,0,0,0,0,1.16994,-1.2699,0.236954,-0.528,0.292,-0.307,-0.05,-1.16969,1.27001,-0.237015,0.528016,-0.292,0.307,0.049987
2.11356,-0.000191225,0.0276562,0.0553142,0.35,1.28,0.87,0,0,0,0,1.16919,-1.26871,0.236384,-0.528003,0.291997,-0.307005,-0.05,-1.16585,1.27019,-0.237196,0.52821,-0.291997,0.307005,0.049825
2.14557,-0.000570498,0.0477668,0.0955426,0.35,1.28,0.87,0,0,0,0,1.16758,-1.26616,0.235163,-0.528009,0.291991,-0.307014,-0.05,-1.15761,1.27057,-0.237584,0.528627,-0.291991,0.307014,0.0494778
2.17759,-0.001152,0.0678725,0.135771,0.35,1.28,0.87,0,0,0,0,1.16511,-1.26224,0.23329,-0.528019,0.291981,-0.307029,-0.05,-1.14498,1.27115,-0.238179,0.529265,-0.291981,0.307029,0.0489456
2.2096,-0.00193568,0.0879714,0.176,0.35,1.28,0.87,0,0,0,0,1.16179,-1.25695,0.230766,-0.528032,0.291968,-0.307048,-0.05,-1.12796,1.27193,-0.238981,0.530126,-0.291968,0.307048,0.0482281
2.24161,-0.00292145,0.108061,0.216228,0.35,1.28,0.87,0,0,0,0,1.1576,-1.25031,0.227591,-0.528049,0.291951,-0.307073,-0.05,-1.10654,1.27292,-0.23999,0.531209,-0.291951,0.307073,0.0473256
2.27363,-0.00410921,0.12814,0.256457,0.35,1.28,0.87,0,0,0,0,1.15256,-1.2423,0.223764,-0.528068,0.291932,-0.307103,-0.05,-1.08073,1.2741,-0.241207,0.532515,-0.291932,0.307103,0.0462379
2.30564,-0.00549885,0.148207,0.296685,0.35,1.28,0.87,0,0,0,0,1.14666,-1.23292,0.219286,-0.528092,0.291908,-0.307137,-0.05,-1.05053,1.27549,-0.24263,0.534042,-0.291908,0.307137,0.044965
2.33765,-0.00709023,0.168258,0.336913,0.35,1.28,0.87,0,0,0,0,1.1399,-1.22219,0.214157,-0.528118,0.291882,-0.307177,-0.05,-1.01594,1.27708,-0.24426,0.535792,-0.291882,0.307177,0.043507
2.36966,-0.00888317,0.188292,0.377142,0.35,1.28,0.87,0,0,0,0,1.13228,-1.21009,0.208376,-0.528148,0.291852,-0.307222,-0.05,-0.976953,1.27888,-0.246098,0.537763,-0.291852,0.307222,0.0418639
2.40168,-0.0108775,0.208307,0.41737,0.35,1.28,0.87,0,0,0,0,1.1238,-1.19663,0.201944,-0.528181,0.291819,-0.307272,-0.05,-0.933573,1.28087,-0.248142,0.539957,-0.291819,0.307272,0.0400356
2.43369,-0.013073,0.228301,0.457599,0.35,1.28,0.87,0,0,0,0,1.11447,-1.1818,0.19486,-0.528218,0.291782,-0.307327,-0.05,-0.8858,1.28307,-0.250393,0.542373,-0.291782,0.307327,0.0380222
2.4657,-0.0154695,0.248272,0.497827,0.35,1.28,0.87,0,0,0,0,1.10427,-1.16561,0.187125,-0.528258,0.291742,-0.307387,-0.05,-0.833634,1.28547,-0.252852,0.545012,-0.291742,0.307387,0.0358237
2.49771,-0.0180667,0.268217,0.538056,0.35,1.28,0.87,0,0,0,0,1.09322,-1.14806,0.178739,-0.528301,0.291699,-0.307452,-0.05,-0.777076,1.28807,-0.255517,0.547872,-0.291699,0.307452,0.03344
2.52973,-0.0208644,0.288136,0.578284,0.35,1.28,0.87,0,0,0,0,1.08131,-1.12914,0.169701,-0.528348,0.291652,-0.307522,-0.05,-0.716124,1.29087,-0.25839,0.550955,-0.291652,0.307522,0.0308711
2.56174,-0.0238623,0.308026,0.618513,0.35,1.28,0.87,0,0,0,0,1.06854,-1.10886,0.160012,-0.528398,0.291602,-0.307597,-0.05,-0.65078,1.29387,-0.261469,0.554259,-0.291602,0.307597,0.0281172
2.59375,-0.02706,0.327884,0.658741,0.35,1.28,0.87,0,0,0,0,1.05492,-1.08722,0.149672,-0.528451,0.291549,-0.307677,-0.05,-0.581043,1.29708,-0.264755,0.557786,-0.291549,0.307677,0.025178
2.62577,-0.0304573,0.347709,0.69897,0.35,1.28,0.87,0,0,0,0,1.04043,-1.06421,0.13868,-0.528508,0.291492,-0.307762,-0.05,-0.506913,1.30049,-0.268249,0.561535,-0.291492,0.307762,0.0220538
2.65778,-0.0340538,0.367499,0.739198,0.35,1.28,0.87,0,0,0,0,1.02509,-1.03985,0.127037,-0.528568,0.291432,-0.307852,-0.05,-0.428389,1.3041,-0.271949,0.565507,-0.291432,0.307852,0.0187444
2.68979,-0.0378491,0.387252,0.779427,0.35,1.28,0.87,0,0,0,0,1.00889,-1.01411,0.114743,-0.528632,0.291368,-0.307948,-0.05,-0.345473,1.30791,-0.275857,0.5697,-0.291368,0.307948,0.0152498
2.7218,-0.0418429,0.406966,0.819655,0.35,1.28,0.87,0,0,0,0,0.991825,-0.987017,0.101797,-0.528699,0.291301,-0.308048,-0.05,-0.258165,1.31192,-0.279972,0.574116,-0.291301,0.308048,0.0115702
2.75382,-0.0460348,0.426638,0.859884,0.35,1.28,0.87,0,0,0,0,0.973907,-0.958557,0.0881997,-0.528769,0.291231,-0.308153,-0.05,-0.166463,1.31614,-0.284293,0.578754,-0.291231,0.308153,0.00770533
2.78583,-0.0504243,0.446267,0.900112,0.35,1.28,0.87,0,0,0,0,0.955129,-0.928735,0.0739511,-0.528843,0.291157,-0.308264,-0.05,-0.0703682,1.32056,-0.288822,0.583614,-0.291157,0.308264,0.00365537
2.81784,-0.055011,0.465852,0.940341,0.35,1.28,0.87,0,0,0,0,0.935494,-0.897549,0.0590513,-0.52892,0.29108,-0.308379,-0.05,0.0301193,1.32518,-0.293557,0.588696,-0.29108,0.308379,-0.000579742
2.84986,-0.0597944,0.485389,0.980569,0.35,1.28,0.87,0,0,0,0,0.915,-0.865,0.0435,-0.529,0.291,-0.3085,-0.05,0.135,1.33,-0.2985,0.594,-0.291,0.3085,-0.00499999
2.88187,-0.064774,0.504877,1.0208,0.35,1.28,0.87,0,0,0,0,0.894506,-0.832451,0.0279488,-0.52908,0.29092,-0.308621,-0.05,0.23988,1.33482,-0.303443,0.599304,-0.29092,0.308621,-0.00942024
2.91388,-0.0699494,0.524314,1.06103,0.35,1.28,0.87,0,0,0,0,0.874871,-0.801265,0.0130489,-0.529157,0.290843,-0.308736,-0.05,0.340368,1.33944,-0.308178,0.604386,-0.290843,0.308736,-0.0136554
2.94589,-0.07532,0.543698,1.10125,0.35,1.28,0.87,0,0,0,0,0.856094,-0.771443,-0.00119962,-0.529231,0.290769,-0.308847,-0.05,0.436463,1.34386,-0.312707,0.609246,-0.290769,0.308847,-0.0177053
2.97791,-0.0808853,0.563026,1.14148,0.35,1.28,0.87,0,0,0,0,0.838175,-0.742983,-0.0147968,-0.529301,0.290699,-0.308952,-0.05,0.528164,1.34808,-0.317028,0.613884,-0.290699,0.308952,-0.0215701
3.00992,-0.0866447,0.582298,1.18171,0.35,1.28,0.87,0,0,0,0,0.821114,-0.715888,-0.0277426,-0.529368,0.290632,-0.309052,-0.05,0.615473,1.35209,-0.321143,0.6183,-0.290632,0.309052,-0.0252498
3.04193,-0.0925976,0.601512,1.22194,0.35,1.28,0.87,0,0,0,0,0.804912,-0.690155,-0.040037,-0.529432,0.290568,-0.309148,-0.05,0.698389,1.3559,-0.325051,0.622493,-0.290568,0.309148,-0.0287444
3.07395,-0.0987434,0.620664,1.26217,0.35,1.28,0.87,0,0,0,0,0.789569,-0.665786,-0.0516801,-0.529492,0.290508,-0.309238,-0.05,0.776912,1.35951,-0.328751,0.626465,-0.290508,0.309238,-0.0320538
3.10596,-0.105082,0.639753,1.3024,0.35,1.28,0.87,0,0,0,0,0.775084,-0.64278,-0.0626718,-0.529549,0.290451,-0.309323,-0.05,0.851043,1.36292,-0.332245,0.630214,-0.290451,0.309323,-0.035178
3.13797,-0.111611,0.658778,1.34263,0.35,1.28,0.87,0,0,0,0,0.761457,-0.621137,-0.0730122,-0.529602,0.290398,-0.309403,-0.05,0.92078,1.36613,-0.335531,0.633741,-0.290398,0.309403,-0.0381172
3.16998,-0.118332,0.677736,1.38285,0.35,1.28,0.87,0,0,0,0,0.748688,-0.600858,-0.0827012,-0.529652,0.290348,-0.309478,-0.05,0.986124,1.36913,-0.33861,0.637045,-0.290348,0.309478,-0.0408711
3.202,-0.125243,0.696626,1.42308,0.35,1.28,0.87,0,0,0,0,0.736778,-0.581942,-0.0917388,-0.529699,0.290301,-0.309548,-0.05,1.04708,1.37193,-0.341483,0.640128,-0.290301,0.309548,-0.04344
3.23401,-0.132344,0.715445,1.46331,0.35,1.28,0.87,0,0,0,0,0.725727,-0.564389,-0.100125,-0.529742,0.290258,-0.309613,-0.05,1.10363,1.37453,-0.344148,0.642988,-0.290258,0.309613,-0.0458237
3.26602,-0.139634,0.734191,1.50354,0.35,1.28,0.87,0,0,0,0,0.715533,-0.5482,-0.10786,-0.529782,0.290218,-0.309673,-0.05,1.1558,1.37693,-0.346607,0.645627,-0.290218,0.309673,-0.0480222
3.29803,-0.147111,0.752864,1.54377,0.35,1.28,0.87,0,0,0,0,0.706198,-0.533374,-0.114944,-0.529819,0.290181,-0.309728,-0.05,1.20357,1.37913,-0.348858,0.648043,-0.290181,0.309728,-0.0500356
3.33005,-0.154777,0.77146,1.584,0.35,1.28,0.87,0,0,0,0,0.697722,-0.519911,-0.121376,-0.529852,0.290148,-0.309778,-0.05,1.24695,1.38112,-0.350902,0.650237,-0.290148,0.309778,-0.0518639
3.36206,-0.162629,0.789979,1.62422,0.35,1.28,0.87,0,0,0,0,0.690104,-0.507812,-0.127157,-0.529882,0.290118,-0.309823,-0.05,1.28594,1.38292,-0.35274,0.652208,-0.290118,0.309823,-0.053507
3.39407,-0.170666,0.808417,1.66445,0.35,1.28,0.87,0,0,0,0,0.683344,-0.497076,-0.132286,-0.529908,0.290092,-0.309863,-0.05,1.32053,1.38451,-0.35437,0.653958,-0.290092,0.309863,-0.054965
3.42609,-0.178889,0.826774,1.70468,0.35,1.28,0.87,0,0,0,0,0.677443,-0.487703,-0.136764,-0.529932,0.290068,-0.309897,-0.05,1.35073,1.3859,-0.355793,0.655485,-0.290068,0.309897,-0.0562379
3.4581,-0.187296,0.845047,1.74491,0.35,1.28,0.87,0,0,0,0,0.6724,-0.479693,-0.140591,-0.529951,0.290049,-0.309927,-0.05,1.37654,1.38708,-0.35701,0.656791,-0.290049,0.309927,-0.0573256
3.49011,-0.195886,0.863234,1.78514,0.35,1.28,0.87,0,0,0,0,0.668215,-0.473047,-0.143766,-0.529968,0.290032,-0.309952,-0.05,1.39796,1.38807,-0.358019,0.657874,-0.290032,0.309952,-0.0582281
3.52212,-0.204659,0.881334,1.82537,0.35,1.28,0.87,0,0,0,0,0.664889,-0.467764,-0.14629,-0.529981,0.290019,-0.309971,-0.05,1.41498,1.38885,-0.358821,0.658735,-0.290019,0.309971,-0.0589456
3.55414,-0.213613,0.899345,1.8656,0.35,1.28,0.87,0,0,0,0,0.662421,-0.463845,-0.148163,-0.529991,0.290009,-0.309986,-0.05,1.42761,1.38943,-0.359416,0.659373,-0.290009,0.309986,-0.0594778
3.58615,-0.222748,0.917266,1.90582,0.35,1.28,0.87,0,0,0,0,0.660811,-0.461289,-0.149384,-0.529997,0.290003,-0.309995,-0.05,1.43585,1.38981,-0.359804,0.65979,-0.290003,0.309995,-0.059825
3.61816,-0.232063,0.935093,1.94605,0.35,1.28,0.87,0,0,0,0,0.66006,-0.460096,-0.149954,-0.53,0.29,-0.31,-0.05,1.43969,1.38999,-0.359985,0.659984,-0.29,0.31,-0.059987
3.65018,-0.241557,0.952826,1.98628,0.35,1.28,0.87,0,0,0,0,0.66,-0.46,-0.15,-0.53,0.29,-0.31,-0.05,1.44,1.39,-0.36,0.66,-0.29,0.31,-0.06
3.68219,-0.251228,0.970462,2.02651,0.35,1.28,0.87,0,0,0,0,0.66,-0.46,-0.15,-0.53,0.29,-0.31,-0.05,1.44,1.39,-0.36,0.66,-0.29,0.31,-0.06
3.7142,-0.261076,0.988,2.06674,0.35,1.28,0.87,0,0,0,0,0.66,-0.46,-0.15,-0.53,0.29,-0.31,-0.05,1.44,1.39,-0.36,0.66,-0.29,0.31,-0.06
3.74621,-0.271101,1.00544,2.10697,0.35,1.28,0.87,0,0,0,0,0.66,-0.46,-0.15,-0.53,0.29,-0.31,-0.05,1.44,1.39,-0.36,0.66,-0.29,0.31,-0.06
3.77823,-0.2813,1.02278,2.14719,0.35,1.28,0.87,0,0,0,0,0.66,-0.46,-0.15,-0.53,0.29,-0.31,-0.05,1.44,1.39,-0.36,0.66,-0.29,0.31,-0.06
3.81024,-0.291673,1.04001,2.18742,0.35,1.28,0.87,0,0,0,0,0.66,-0.46,-0.15,-0.53,0.29,-0.31,-0.05,1.44,1.39,-0.36,0.66,-0.29,0.31,-0.06
3.84225,-0.302218,1.05714,2.22765,0.35,1.28,0.87,0,0,0,0,0.66,-0.46,-0.15,-0.53,0.29,-0.31,-0.05,1.44,1.39,-0.36,0.66,-0.29,0.31,-0.06
3.87427,-0.312936,1.07416,2.26788,0.35,1.28,0.87,0,0,0,0,0.66,-0.46,-0.15,-0.53,0.29,-0.31,-0.05,1.44,1.39,-0.36,0.66,-0.29,0.31,-0.06
3.90628,-0.323824,1.09107,2.30811,0.35,1.28,0.87,0,0,0,0,0.66,-0.46,-0.15,-0.53,0.29,-0.31,-0.05,1.44,1.39,-0.36,0.66,-0.29,0.31,-0.06
3.93829,-0.334881,1.10787,2.34834,0.35,1.28,0.87,0,0,0,0,0.66,-0.46,-0.15,-0.53,0.29,-0.31,-0.05,1.44,1.39,-0.36,0.66,-0.29,0.31,-0.06
3.9703,-0.346107,1.12456,2.38857,0.35,1.28,0.87,0,0,0,0,0.66,-0.46,-0.15,-0.53,0.29,-0.31,-0.05,1.44,1.39,-0.36,0.66,-0.29,0.31,-0.06
4.00232,-0.357501,1.14114,2.42879,0.35,1.28,0.87,0,0,0,0,0.66,-0.46,-0.15,-0.53,0.29,-0.31,-0.05,1.44,1.39,-0.36,0.66,-0.29,0.31,-0.06
4.03433,-0.36906,1.1576,2.46902,0.35,1.28,0.87,0,0,0,0,0.66,-0.46,-0.15,-0.53,0.29,-0.31,-0.05,1.44,1.39,-0.36,0.66,-0.29,0.31,-0.06
4.06634,-0.380785,1.17394,2.50925,0.35,1.28,0.87,0,0,0,0,0.66,-0.46,-0.15,-0.53,0.29,-0.31,-0.05,1.44,1.39,-0.36,0.66,-0.29,0.31,-0.06
4.09836,-0.392673,1.19017,2.54948,0.35,1.28,0.87,0,0,0,0,0.66,-0.46,-0.15,-0.53,0.29,-0.31,-0.05,1.44,1.39,-0.36,0.66,-0.29,0.31,-0.06
4.13037,-0.404723,1.20627,2.58971,0.35,1.28,0.87,0,0,0,0,0.66,-0.46,-0.15,-0.53,0.29,-0.31,-0.05,1.44,1.39,-0.36,0.66,-0.29,0.31,-0.06
4.16238,-0.416936,1.22225,2.62994,0.35,1.28,0.87,0,0,0,0,0.66,-0.46,-0.15,-0.53,0.29,-0.31,-0.05,1.44,1.39,-0.36,0.66,-0.29,0.31,-0.06
4.19439,-0.429308,1.23811,2.67017,0.35,1.28,0.87,0,0,0,0,0.66,-0.46,-0.15,-0.53,0.29,-0.31,-0.05,1.44,1.39,-0.36,0.66,-0.29,0.31,-0.06
4.22641,-0.441839,1.25385,2.71039,0.35,1.28,0.87,0,0,0,0,0.66,-0.46,-0.15,-0.53,0.29,-0.31,-0.05,1.44,1.39,-0.36,0.66,-0.29,0.31,-0.06
4.25842,-0.454528,1.26945,2.75062,0.35,1.28,0.87,0,0,0,0,0.66,-0.46,-0.15,-0.53,0.29,-0.31,-0.05,1.44,1.39,-0.36,0.66,-0.29,0.31,-0.06
4.29043,-0.467373,1.28493,2.79085,0.35,1.28,0.87,0,0,0,0,0.66,-0.46,-0.15,-0.53,0.29,-0.31,-0.05,1.44,1.39,-0.36,0.66,-0.29,0.31,-0.06
4.32244,-0.480373,1.30028,2.83108,0.35,1.28,0.87,0,0,0,0,0.66,-0.46,-0.15,-0.53,0.29,-0.31,-0.05,1.44,1.39,-0.36,0.66,-0.29,0.31,-0.06
4.35446,-0.493526,1.3155,2.87131,0.35,1.28,0.87,0,0,0,0,0.66,-0.46,-0.15,-0.53,0.29,-0.31,-0.05,1.44,1.39,-0.36,0.66,-0.29,0.31,-0.06
4.38647,-0.506832,1.33058,2.91154,0.35,1.28,0.87,0,0,0,0,0.66,-0.46,-0.15,-0.53,0.29,-0.31,-0.05,1.44,1.39,-0.36,0.66,-0.29,0.31,-0.06
4.41848,-0.520289,1.34553,2.95176,0.35,1.28,0.87,0,0,0,0,0.66,-0.46,-0.15,-0.53,0.29,-0.31,-0.05,1.44,1.39,-0.36,0.66,-0.29,0.31,-0.06
4.4505,-0.533896,1.36035,2.99199,0.35,1.28,0.87,0,0,0,0,0.66,-0.46,-0.15,-0.53,0.29,-0.31,-0.05,1.44,1.39,-0.36,0.66,-0.29,0.31,-0.06
4.48251,-0.547651,1.37502,3.03222,0.35,1.28,0.87,0,0,0,0,0.66,-0.46,-0.15,-0.53,0.29,-0.31,-0.05,1.44,1.39,-0.36,0.66,-0.29,0.31,-0.06
4.51452,-0.561553,1.38956,3.07245,0.35,1.28,0.87,0,0,0,0,0.66,-0.46,-0.15,-0.53,0.29,-0.31,-0.05,1.44,1.39,-0.36,0.66,-0.29,0.31,-0.06
4.54653,-0.575601,1.40395,3.11268,0.35,1.28,0.87,0,0,0,0,0.66,-0.46,-0.15,-0.53,0.29,-0.31,-0.05,1.44,1.39,-0.36,0.66,-0.29,0.31,-0.06
4.57855,-0.589792,1.41821,3.15291,0.35,1.28,0.87,0,0,0,0,0.66,-0.46,-0.15,-0.53,0.29,-0.31,-0.05,1.44,1.39,-0.36,0.66,-0.29,0.31,-0.06
4.61056,-0.604126,1.43232,3.19314,0.35,1.28,0.87,0,0,0,0,0.66,-0.46,-0.15,-0.53,0.29,-0.31,-0.05,1.44,1.39,-0.36,0.66,-0.29,0.31,-0.06
4.64257,-0.618602,1.44628,3.23336,0.35,1.28,0.87,0,0,0,0,0.66,-0.46,-0.15,-0.53,0.29,-0.31,-0.05,1.44,1.39,-0.36,0.66,-0.29,0.31,-0.06
4.67459,-0.633217,1.4601,3.27359,0.35,1.28,0.87,0,0,0,0,0.66,-0.46,-0.15,-0.53,0.29,-0.31,-0.05,1.44,1.39,-0.36,0.66,-0.29,0.31,-0.06
4.7066,-0.64797,1.47378,3.31382,0.35,1.28,0.87,0,0,0,0,0.66,-0.46,-0.15,-0.53,0.29,-0.31,-0.05,1.44,1.39,-0.36,0.66,-0.29,0.31,-0.06
4.73861,-0.66286,1.4873,3.35405,0.35,1.28,0.87,0,0,0,0,0.66,-0.46,-0.15,-0.53,0.29,-0.31,-0.05,1.44,1.39,-0.36,0.66,-0.29,0.31,-0.06
4.77062,-0.677886,1.50067,3.39428,0.35,1.28,0.87,0,0,0,0,0.66,-0.46,-0.15,-0.53,0.29,-0.31,-0.05,1.44,1.39,-0.36,0.66,-0.29,0.31,-0.06
4.80264,-0.693045,1.51389,3.43451,0.35,1.28,0.87,0,0,0,0,0.66,-0.46,-0.15,-0.53,0.29,-0.31,-0.05,1.44,1.39,-0.36,0.66,-0.29,0.31,-0.06
4.83465,-0.708336,1.52696,3.47473,0.35,1.28,0.87,0,0,0,0,0.66,-0.46,-0.15,-0.53,0.29,-0.31,-0.05,1.44,1.39,-0.36,0.66,-0.29,0.31,-0.06
4.86666,-0.723758,1.53987,3.51496,0.35,1.28,0.87,0,0,0,0,0.66,-0.46,-0.15,-0.53,0.29,-0.31,-0.05,1.44,1.39,-0.36,0.66,-0.29,0.31,-0.06
4.89868,-0.739309,1.55263,3.55519,0.35,1.28,0.87,0,0,0,0,0.65991,-0.460039,-0.149867,-0.530145,0.29,-0.309996,-0.05,1.43986,1.38995,-0.360037,0.660129,-0.289994,0.31,-0.06
4.93069,-0.754987,1.56523,3.59542,0.35,1.28,0.87,0,0,0,0,0.657762,-0.460986,-0.14667,-0.533623,0.29,-0.309893,-0.05,1.43656,1.38885,-0.360932,0.663223,-0.28984,0.31,-0.06
4.9627,-0.770792,1.57767,3.63565,0.35,1.28,0.87,0,0,0,0,0.65275,-0.463194,-0.139211,-0.541739,0.29,-0.309655,-0.05,1.42887,1.38629,-0.363021,0.670444,-0.289482,0.31,-0.06
4.99471,-0.78672,1.58995,3.67588,0.35,1.28,0.87,0,0,0,0,0.644873,-0.466663,-0.127489,-0.554491,0.29,-0.30928,-0.05,1.41677,1.38226,-0.366303,0.68179,-0.288919,0.31,-0.06
5.02673,-0.802772,1.60208,3.71611,0.35,1.28,0.87,0,0,0,0,0.634132,-0.471394,-0.111506,-0.571882,0.29,-0.308768,-0.05,1.40027,1.37676,-0.370778,0.697263,-0.288152,0.31,-0.06
5.05874,-0.818944,1.61403,3.75633,0.35,1.28,0.87,0,0,0,0,0.620526,-0.477387,-0.0912595,-0.59391,0.29,-0.30812,-0.05,1.37938,1.36979,-0.376447,0.716861,-0.28718,0.31,-0.06
5.09075,-0.835236,1.62583,3.79656,0.35,1.28,0.87,0,0,0,0,0.604057,-0.484642,-0.066751,-0.620575,0.29,-0.307336,-0.05,1.35409,1.36136,-0.38331,0.740585,-0.286004,0.31,-0.06
5.12276,-0.851646,1.63746,3.83679,0.35,1.28,0.87,0,0,0,0,0.584723,-0.493158,-0.0379802,-0.651878,0.29,-0.306415,-0.05,1.3244,1.35147,-0.391366,0.768435,-0.284623,0.31,-0.06
5.15478,-0.868172,1.64893,3.87702,0.35,1.28,0.87,0,0,0,0,0.562524,-0.502936,-0.004947,-0.687818,0.29,-0.305358,-0.05,1.29031,1.3401,-0.400615,0.800411,-0.283037,0.31,-0.06
5.18679,-0.884812,1.66023,3.91725,0.35,1.28,0.87,0,0,0,0,0.537462,-0.513975,0.0323485,-0.728395,0.29,-0.304165,-0.05,1.25182,1.32727,-0.411058,0.836513,-0.281247,0.31,-0.06
5.2188,-0.901566,1.67136,3.95748,0.35,1.28,0.87,0,0,0,0,0.509535,-0.526276,0.0739064,-0.77361,0.29,-0.302835,-0.05,1.20893,1.31298,-0.422694,0.876741,-0.279252,0.31,-0.06
5.25082,-0.91843,1.68232,3.9977,0.35,1.28,0.87,0,0,0,0,0.478744,-0.539839,0.119727,-0.823463,0.29,-0.301369,-0.05,1.16164,1.29721,-0.435523,0.921095,-0.277053,0.31,-0.06
5.28283,-0.935404,1.69311,4.03793,0.35,1.28,0.87,0,0,0,0,0.445088,-0.554664,0.169809,-0.877952,0.29,-0.299766,-0.05,1.10996,1.27999,-0.449547,0.969575,-0.274649,0.31,-0.06
5.31484,-0.952485,1.70373,4.07816,0.35,1.28,0.87,0,0,0,0,0.408568,-0.57075,0.224154,-0.93708,0.29,-0.298027,-0.05,1.05387,1.26129,-0.464763,1.02218,-0.272041,0.31,-0.06
5.34685,-0.969672,1.71418,4.11839,0.35,1.28,0.87,0,0,0,0,0.369184,-0.588097,0.282761,-1.00084,0.29,-0.296152,-0.05,0.99339,1.24113,-0.481173,1.07891,-0.269227,0.31,-0.06
5.37887,-0.986964,1.72446,4.15862,0.35,1.28,0.87,0,0,0,0,0.326936,-0.606707,0.345631,-1.06925,0.29,-0.29414,-0.05,0.928509,1.2195,-0.498777,1.13977,-0.26621,0.31,-0.06
5.41088,-1.00436,1.73456,4.19885,0.35,1.28,0.87,0,0,0,0,0.281823,-0.626578,0.412763,-1.14229,0.29,-0.291992,-0.05,0.859229,1.19641,-0.517574,1.20475,-0.262987,0.31,-0.06
5.44289,-1.02185,1.74449,4.23908,0.35,1.28,0.87,0,0,0,0,0.233891,-0.647691,0.48409,-1.21989,0.29,-0.289709,-0.05,0.785619,1.17187,-0.537545,1.2738,-0.259564,0.31,-0.06
5.47491,-1.03945,1.75423,4.2793,0.35,1.28,0.87,0,0,0,0,0.18663,-0.668508,0.554419,-1.29641,0.29,-0.287459,-0.05,0.713039,1.14768,-0.557237,1.34188,-0.256188,0.31,-0.06
5.50692,-1.05714,1.76381,4.31953,0.35,1.28,0.87,0,0,0,0,0.142233,-0.688064,0.620486,-1.36829,0.29,-0.285344,-0.05,0.644859,1.12495,-0.575736,1.40583,-0.253017,0.31,-0.06
5.53893,-1.07492,1.7732,4.35976,0.35,1.28,0.87,0,0,0,0,0.100701,-0.706358,0.68229,-1.43553,0.29,-0.283367,-0.05,0.581077,1.10369,-0.593041,1.46566,-0.25005,0.31,-0.06
5.57094,-1.0928,1.78241,4.39999,0.35,1.28,0.87,0,0,0,0,0.0620332,-0.72339,0.739832,-1.49814,0.29,-0.281525,-0.05,0.521694,1.0839,-0.609153,1.52136,-0.247288,0.31,-0.06
5.60296,-1.11077,1.79145,4.44022,0.35,1.28,0.87,0,0,0,0,0.0262294,-0.739161,0.793111,-1.5561,0.29,-0.27982,-0.05,0.466709,1.06557,-0.624071,1.57293,-0.244731,0.31,-0.06
5.63497,-1.12884,1.8003,4.48045,0.35,1.28,0.87,0,0,0,0,-0.00670999,-0.75367,0.842128,-1.60944,0.29,-0.278252,-0.05,0.416124,1.04871,-0.637796,1.62038,-0.242378,0.31,-0.06
5.66698,-1.14699,1.80897,4.52068,0.35,1.28,0.87,0,0,0,0,-0.0367851,-0.766917,0.886883,-1.65813,0.29,-0.27682,-0.05,0.369937,1.03331,-0.650327,1.6637,-0.24023,0.31,-0.06
5.699,-1.16522,1.81746,4.5609,0.35,1.28,0.87,0,0,0,0,-0.0639959,-0.778903,0.927375,-1.70218,0.29,-0.275524,-0.05,0.328149,1.01938,-0.661665,1.7029,-0.238286,0.31,-0.06
5.73101,-1.18354,1.82576,4.60113,0.35,1.28,0.87,0,0,0,0,-0.0883425,-0.789627,0.963605,-1.7416,0.29,-0.274365,-0.05,0.29076,1.00692,-0.671809,1.73797,-0.236547,0.31,-0.06
5.76302,-1.20194,1.83388,4.64136,0.35,1.28,0.87,0,0,0,0,-0.109825,-0.799089,0.995572,-1.77638,0.29,-0.273342,-0.05,0.257769,0.995923,-0.68076,1.76891,-0.235013,0.31,-0.06
5.79503,-1.22043,1.84181,4.68159,0.35,1.28,0.87,0,0,0,0,-0.128443,-0.80729,1.02328,-1.80653,0.29,-0.272455,-0.05,0.229177,0.986392,-0.688518,1.79573,-0.233683,0.31,-0.06
5.82705,-1.23899,1.84956,4.72182,0.35,1.28,0.87,0,0,0,0,-0.144196,-0.814229,1.04672,-1.83203,0.29,-0.271705,-0.05,0.204984,0.978328,-0.695082,1.81843,-0.232557,0.31,-0.06
5.85906,-1.25763,1.85712,4.76205,0.35,1.28,0.87,0,0,0,0,-0.157086,-0.819907,1.0659,-1.8529,0.29,-0.271091,-0.05,0.18519,0.97173,-0.700452,1.83699,-0.231637,0.31,-0.06
5.89107,-1.27634,1.86449,4.80227,0.35,1.28,0.87,0,0,0,0,-0.167111,-0.824323,1.08082,-1.86913,0.29,-0.270614,-0.05,0.169794,0.966598,-0.704629,1.85143,-0.230921,0.31,-0.06
5.92308,-1.29513,1.87167,4.8425,0.35,1.28,0.87,0,0,0,0,-0.174271,-0.827477,1.09148,-1.88073,0.29,-0.270273,-0.05,0.158797,0.962932,-0.707613,1.86175,-0.230409,0.31,-0.06
5.9551,-1.31399,1.87867,4.88273,0.35,1.28,0.87,0,0,0,0,-0.178568,-0.829369,1.09787,-1.88768,0.29,-0.270068,-0.05,0.152199,0.960733,-0.709403,1.86794,-0.230102,0.31,-0.06
5.98711,-1.33292,1.88547,4.92296,0.35,1.28,0.87,0,0,0,0,-0.18,-0.83,1.1,-1.89,0.29,-0.27,-0.05,0.15,0.96,-0.71,1.87,-0.23,0.31,-0.06
6.01912,-1.35192,1.89209,4.96319,0.35,1.28,0.87,0,0,0,0,-0.18,-0.83,1.1,-1.89,0.29,-0.27,-0.05,0.15,0.96,-0.71,1.87,-0.23,0.31,-0.06
6.05114,-1.37098,1.89851,5.00342,0.35,1.28,0.87,0,0,0,0,-0.18,-0.83,1.1,-1.89,0.29,-0.27,-0.05,0.15,0.96,-0.71,1.87,-0.23,0.31,-0.06
6.08315,-1.3901,1.90474,5.04365,0.35,1.28,0.87,0,0,0,0,-0.18,-0.83,1.1,-1.89,0.29,-0.27,-0.05,0.15,0.96,-0.71,1.87,-0.23,0.31,-0.06
6.11516,-1.40929,1.91077,5.08387,0.35,1.28,0.87,0,0,0,0,-0.18,-0.83,1.1,-1.89,0.29,-0.27,-0.05,0.15,0.96,-0.71,1.87,-0.23,0.31,-0.06
6.14717,-1.42853,1.91662,5.1241,0.35,1.28,0.87,0,0,0,0,-0.18,-0.83,1.1,-1.89,0.29,-0.27,-0.05,0.15,0.96,-0.71,1.87,-0.23,0.31,-0.06
6.17919,-1.44784,1.92227,5.16433,0.35,1.28,0.87,0,0,0,0,-0.18,-0.83,1.1,-1.89,0.29,-0.27,-0.05,0.15,0.96,-0.71,1.87,-0.23,0.31,-0.06
6.2112,-1.4672,1.92772,5.20456,0.35,1.28,0.87,0,0,0,0,-0.18,-0.83,1.1,-1.89,0.29,-0.27,-0.05,0.15,0.96,-0.71,1.87,-0.23,0.31,-0.06
6.24321,-1.48661,1.93299,5.24479,0.35,1.28,0.87,0,0,0,0,-0.18,-0.83,1.1,-1.89,0.29,-0.27,-0.05,0.15,0.96,-0.71,1.87,-0.23,0.31,-0.06
6.27523,-1.50608,1.93805,5.28502,0.35,1.28,0.87,0,0,0,0,-0.18,-0.83,1.1,-1.89,0.29,-0.27,-0.05,0.15,0.96,-0.71,1.87,-0.23,0.31,-0.06
6.30724,-1.52559,1.94292,5.32524,0.35,1.28,0.87,0,0,0,0,-0.18,-0.83,1.1,-1.89,0.29,-0.27,-0.05,0.15,0.96,-0.71,1.87,-0.23,0.31,-0.06
6.33925,-1.54516,1.94759,5.36547,0.35,1.28,0.87,0,0,0,0,-0.18,-0.83,1.1,-1.89,0.29,-0.27,-0.05,0.15,0.96,-0.71,1.87,-0.23,0.31,-0.06
6.37126,-1.56477,1.95207,5.4057,0.35,1.28,0.87,0,0,0,0,-0.18,-0.83,1.1,-1.89,0.29,-0.27,-0.05,0.15,0.96,-0.71,1.87,-0.23,0.31,-0.06
6.40328,-1.58442,1.95635,5.44593,0.35,1.28,0.87,0,0,0,0,-0.18,-0.83,1.1,-1.89,0.29,-0.27,-0.05,0.15,0.96,-0.71,1.87,-0.23,0.31,-0.06
6.43529,-1.60412,1.96043,5.48616,0.35,1.28,0.87,0,0,0,0,-0.18,-0.83,1.1,-1.89,0.29,-0.27,-0.05,0.15,0.96,-0.71,1.87,-0.23,0.31,-0.06
6.4673,-1.62385,1.96431,5.52639,0.35,1.28,0.87,0,0,0,0,-0.18,-0.83,1.1,-1.89,0.29,-0.27,-0.05,0.15,0.96,-0.71,1.87,-0.23,0.31,-0.06
6.49932,-1.64363,1.96799,5.56662,0.35,1.28,0.87,0,0,0,0,-0.18,-0.83,1.1,-1.89,0.29,-0.27,-0.05,0.15,0.96,-0.71,1.87,-0.23,0.31,-0.06
6.53133,-1.66344,1.97148,5.60684,0.35,1.28,0.87,0,0,0,0,-0.18,-0.83,1.1,-1.89,0.29,-0.27,-0.05,0.15,0.96,-0.71,1.87,-0.23,0.31,-0.06
6.56334,-1.68328,1.97476,5.64707,0.35,1.28,0.87,0,0,0,0,-0.18,-0.83,1.1,-1.89,0.29,-0.27,-0.05,0.15,0.96,-0.71,1.87,-0.23,0.31,-0.06
6.59535,-1.70316,1.97785,5.6873,0.35,1.28,0.87,0,0,0,0,-0.18,-0.83,1.1,-1.89,0.29,-0.27,-0.05,0.15,0.96,-0.71,1.87,-0.23,0.31,-0.06
6.62737,-1.72306,1.98073,5.72753,0.35,1.28,0.87,0,0,0,0,-0.18,-0.83,1.1,-1.89,0.29,-0.27,-0.05,0.15,0.96,-0.71,1.87,-0.23,0.31,-0.06
6.65938,-1.743,1.98342,5.76776,0.35,1.28,0.87,0,0,0,0,-0.18,-0.83,1.1,-1.89,0.29,-0.27,-0.05,0.15,0.96,-0.71,1.87,-0.23,0.31,-0.06
6.69139,-1.76296,1.9859,5.80799,0.35,1.28,0.87,0,0,0,0,-0.18,-0.83,1.1,-1.89,0.29,-0.27,-0.05,0.15,0.96,-0.71,1.87,-0.23,0.31,-0.06
6.72341,-1.78294,1.98819,5.84821,0.35,1.28,0.87,0,0,0,0,-0.18,-0.83,1.1,-1.89,0.29,-0.27,-0.05,0.15,0.96,-0.71,1.87,-0.23,0.31,-0.06
6.75542,-1.80295,1.99027,5.88844,0.35,1.28,0.87,0,0,0,0,-0.18,-0.83,1.1,-1.89,0.29,-0.27,-0.05,0.15,0.96,-0.71,1.87,-0.23,0.31,-0.06
6.78743,-1.82298,1.99215,5.92867,0.35,1.28,0.87,0,0,0,0,-0.18,-0.83,1.1,-1.89,0.29,-0.27,-0.05,0.15,0.96,-0.71,1.87,-0.23,0.31,-0.06
6.81944,-1.84302,1.99383,5.9689,0.35,1.28,0.87,0,0,0,0,-0.18,-0.83,1.1,-1.89,0.29,-0.27,-0.05,0.15,0.96,-0.71,1.87,-0.23,0.31,-0.06
6.85146,-1.86308,1.99531,6.00913,0.35,1.28,0.87,0,0,0,0,-0.18,-0.83,1.1,-1.89,0.29,-0.27,-0.05,0.15,0.96,-0.71,1.87,-0.23,0.31,-0.06
6.88347,-1.88315,1.99658,6.04936,0.35,1.28,0.87,0,0,0,0,-0.18,-0.83,1.1,-1.89,0.29,-0.27,-0.05,0.15,0.96,-0.71,1.87,-0.23,0.31,-0.06
6.91548,-1.90324,1.99766,6.08959,0.35,1.28,0.87,0,0,0,0,-0.18,-0.83,1.1,-1.89,0.29,-0.27,-0.05,0.15,0.96,-0.71,1.87,-0.23,0.31,-0.06
6.94749,-1.92333,1.99853,6.12981,0.35,1.28,0.87,0,0,0,0,-0.18,-0.83,1.1,-1.89,0.29,-0.27,-0.05,0.15,0.96,-0.71,1.87,-0.23,0.31,-0.06
6.97951,-1.94344,1.9992,6.17004,0.35,1.28,0.87,0,0,0,0,-0.18,-0.83,1.1,-1.89,0.29,-0.27,-0.05,0.15,0.96,-0.71,1.87,-0.23,0.31,-0.06
7.01152,-1.96354,1.99967,6.21027,0.35,1.28,0.87,0,0,0,0,-0.18,-0.83,1.1,-1.89,0.29,-0.27,-0.05,0.15,0.96,-0.71,1.87,-0.23,0.31,-0.06
7.04353,-1.98366,1.99993,6.2505,0.35,1.28,0.87,0,0,0,0,-0.18,-0.83,1.1,-1.89,0.29,-0.27,-0.05,0.15,0.96,-0.71,1.87,-0.23,0.31,-0.06
7.07555,-2.00377,2,6.29073,0.35,1.28,0.87,0,0,0,0,-0.18,-0.83,1.1,-1.89,0.29,-0.27,-0.05,0.15,0.96,-0.71,1.87,-0.23,0.31,-0.06
7.10756,-2.02389,1.99986,6.33096,0.35,1.28,0.87,0,0,0,0,-0.18,-0.83,1.1,-1.89,0.29,-0.27,-0.05,0.15,0.96,-0.71,1.87,-0.23,0.31,-0.06
7.13957,-2.044,1.99952,6.37119,0.35,1.28,0.87,0,0,0,0,-0.18,-0.83,1.1,-1.89,0.29,-0.27,-0.05,0.15,0.96,-0.71,1.87,-0.23,0.31,-0.06
7.17158,-2.0641,1.99897,6.41141,0.35,1.28,0.87,0,0,0,0,-0.18,-0.83,1.1,-1.89,0.29,-0.27,-0.05,0.15,0.96,-0.71,1.87,-0.23,0.31,-0.06
7.2036,-2.0842,1.99823,6.45164,0.35,1.28,0.87,0,0,0,0,-0.18,-0.83,1.1,-1.89,0.29,-0.27,-0.05,0.15,0.96,-0.71,1.87,-0.23,0.31,-0.06
7.23561,-2.1043,1.99728,6.49187,0.35,1.28,0.87,0,0,0,0,-0.18,-0.83,1.1,-1.89,0.29,-0.27,-0.05,0.15,0.96,-0.71,1.87,-0.23,0.31,-0.06
7.26762,-2.12438,1.99613,6.5321,0.35,1.28,0.87,0,0,0,0,-0.18,-0.83,1.1,-1.89,0.29,-0.27,-0.05,0.15,0.96,-0.71,1.87,-0.23,0.31,-0.06
7.29964,-2.14445,1.99478,6.57233,0.35,1.28,0.87,0,0,0,0,-0.18,-0.83,1.1,-1.89,0.29,-0.27,-0.05,0.15,0.96,-0.71,1.87,-0.23,0.31,-0.06
7.33165,-2.1645,1.99322,6.61256,0.35,1.28,0.87,0,0,0,0,-0.18,-0.83,1.1,-1.89,0.29,-0.27,-0.05,0.15,0.96,-0.71,1.87,-0.23,0.31,-0.06
7.36366,-2.18454,1.99147,6.65278,0.35,1.28,0.87,-5.05059e-05,0,-0.000127948,0,-0.179886,-0.829949,1.09986,-1.89002,0.289921,-0.269984,-0.0499596,0.150077,0.959971,-0.710007,1.86983,-0.23,0.309974,-0.06
7.39567,-2.20456,1.98951,6.69301,0.35,1.28,0.87,-0.00126265,0,-0.00319871,0,-0.177138,-0.828737,1.09649,-1.89039,0.288036,-0.26959,-0.0489899,0.151936,0.95927,-0.710168,1.86568,-0.23,0.309355,-0.06
7.42769,-2.22455,1.98735,6.73324,0.35,1.28,0.87,-0.00409098,0,-0.0103638,0,-0.170727,-0.825909,1.08864,-1.89127,0.283636,-0.268673,-0.0467272,0.156273,0.957636,-0.710545,1.856,-0.23,0.307909,-0.06
7.4597,-2.24453,1.985,6.77347,0.35,1.28,0.87,-0.00853549,0,-0.0216233,0,-0.160653,-0.821465,1.07629,-1.89266,0.276723,-0.267231,-0.0431716,0.163088,0.955068,-0.711138,1.84079,-0.23,0.305637,-0.06
7.49171,-2.26448,1.98244,6.8137,0.35,1.28,0.87,-0.0145962,0,-0.036977,0,-0.146915,-0.815404,1.05945,-1.89454,0.267295,-0.265264,-0.038323,0.172381,0.951567,-0.711946,1.82005,-0.23,0.30254,-0.06
7.52373,-2.2844,1.97968,6.85393,0.35,1.28,0.87,-0.0222731,0,-0.0564252,0,-0.129514,-0.807727,1.03813,-1.89693,0.255353,-0.262774,-0.0321815,0.184152,0.947131,-0.71297,1.79378,-0.23,0.298616,-0.06
7.55574,-2.3043,1.97672,6.89416,0.35,1.28,0.87,-0.0315662,0,-0.0799676,0,-0.10845,-0.798434,1.01232,-1.89982,0.240897,-0.259759,-0.0247471,0.198401,0.941762,-0.714209,1.76197,-0.23,0.293866,-0.06
7.58775,-2.32416,1.97355,6.93438,0.35,1.28,0.87,-0.0424754,0,-0.107604,0,-0.0837223,-0.787525,0.982013,-1.90321,0.223927,-0.256219,-0.0160196,0.215129,0.935459,-0.715663,1.72464,-0.23,0.28829,-0.06
7.61976,-2.34399,1.97019,6.97461,0.35,1.28,0.87,-0.0550009,0,-0.139336,0,-0.0553313,-0.774999,0.94722,-1.90711,0.204443,-0.252155,-0.00599927,0.234335,0.928222,-0.717333,1.68177,-0.23,0.281888,-0.06
7.65178,-2.36379,1.96664,7.01484,0.35,1.28,0.87,-0.0691426,0,-0.175161,0,-0.0232769,-0.760857,0.907937,-1.91151,0.182445,-0.247567,0.00531404,0.256019,0.920051,-0.719219,1.63338,-0.23,0.27466,-0.06
7.68379,-2.38355,1.96288,7.05507,0.35,1.28,0.87,-0.0849004,0,-0.215081,0,0.0124409,-0.7451,0.864166,-1.91641,0.157933,-0.242455,0.0179203,0.280181,0.910946,-0.72132,1.57945,-0.23,0.266606,-0.06
7.7158,-2.40327,1.95892,7.0953,0.35,1.28,0.87,-0.102274,0,-0.259095,0,0.051822,-0.727726,0.815904,-1.92182,0.130906,-0.236818,0.0318195,0.306821,0.900908,-0.723637,1.51999,-0.23,0.257726,-0.06
7.74781,-2.42295,1.95477,7.13553,0.35,1.28,0.87,-0.121265,0,-0.307204,0,0.0948665,-0.708735,0.763154,-1.92773,0.101366,-0.230656,0.0470117,0.335939,0.889936,-0.726169,1.45501,-0.23,0.24802,-0.06
7.77983,-2.44259,1.95041,7.17575,0.35,1.28,0.87,-0.141871,0,-0.359407,0,0.141574,-0.688129,0.705914,-1.93414,0.0693117,-0.223971,0.0634968,0.367536,0.87803,-0.728916,1.38449,-0.23,0.237488,-0.06
7.81184,-2.46218,1.94586,7.21598,0.35,1.28,0.87,-0.164094,0,-0.415704,0,0.191946,-0.665906,0.644184,-1.94105,0.0347433,-0.216761,0.0812749,0.40161,0.86519,-0.731879,1.30844,-0.23,0.22613,-0.06
7.84385,-2.48173,1.94112,7.25621,0.35,1.28,0.87,-0.187932,0,-0.476094,0,0.245979,-0.642068,0.577967,-1.94847,-0.00233847,-0.209027,0.100345,0.438162,0.851417,-0.735058,1.22686,-0.23,0.213946,-0.06
7.87587,-2.50123,1.93617,7.29644,0.35,1.28,0.87,-0.212643,0,-0.538695,0,0.30199,-0.617357,0.509326,-1.95616,-0.0407774,-0.201009,0.120114,0.476052,0.83714,-0.738352,1.14229,-0.23,0.201316,-0.06
7.90788,-2.52067,1.93104,7.33667,0.35,1.28,0.87,-0.237357,0,-0.601305,0,0.35801,-0.592643,0.440674,-1.96384,-0.0792225,-0.192991,0.139886,0.513948,0.82286,-0.741648,1.05771,-0.23,0.188684,-0.06
7.93989,-2.54007,1.9257,7.3769,0.35,1.28,0.87,-0.262068,0,-0.663906,0,0.414021,-0.567932,0.372033,-1.97153,-0.117661,-0.184973,0.159654,0.551838,0.808583,-0.744942,0.973145,-0.23,0.176054,-0.06
7.9719,-2.55941,1.92017,7.41713,0.35,1.28,0.87,-0.285906,0,-0.724296,0,0.468054,-0.544094,0.305816,-1.97895,-0.154743,-0.177239,0.178725,0.58839,0.79481,-0.748121,0.891565,-0.23,0.16387,-0.06
8.00392,-2.57869,1.91445,7.45735,0.35,1.28,0.87,-0.308129,0,-0.780593,0,0.518426,-0.521871,0.244086,-1.98586,-0.189312,-0.170029,0.196503,0.622464,0.78197,-0.751084,0.815514,-0.23,0.152512,-0.06
8.03593,-2.59791,1.90853,7.49758,0.35,1.28,0.87,-0.328735,0,-0.832796,0,0.565133,-0.501265,0.186846,-1.99227,-0.221366,-0.163344,0.212988,0.654061,0.770064,-0.753831,0.744995,-0.23,0.14198,-0.06
8.06794,-2.61708,1.90242,7.53781,0.35,1.28,0.87,-0.347726,0,-0.880905,0,0.608178,-0.482274,0.134096,-1.99818,-0.250906,-0.157182,0.22818,0.683179,0.759092,-0.756363,0.680006,-0.23,0.132274,-0.06
8.09996,-2.63618,1.89612,7.57804,0.35,1.28,0.87,-0.3651,0,-0.924919,0,0.647559,-0.4649,0.0858344,-2.00359,-0.277933,-0.151545,0.24208,0.709819,0.749054,-0.75868,0.620548,-0.23,0.123394,-0.06
8.13197,-2.65522,1.88963,7.61827,0.35,1.28,0.87,-0.380857,0,-0.964839,0,0.683277,-0.449143,0.0420627,-2.00849,-0.302445,-0.146433,0.254686,0.733981,0.739949,-0.760781,0.566621,-0.23,0.11534,-0.06
8.16398,-2.67419,1.88294,7.6585,0.35,1.28,0.87,-0.394999,0,-1.00066,0,0.715331,-0.435001,0.00278031,-2.01289,-0.324443,-0.141845,0.265999,0.755665,0.731778,-0.762667,0.518225,-0.23,0.108112,-0.06
8.19599,-2.69309,1.87607,7.69872,0.35,1.28,0.87,-0.407525,0,-1.0324,0,0.743722,-0.422475,-0.0320126,-2.01679,-0.343927,-0.137781,0.27602,0.774871,0.724541,-0.764337,0.47536,-0.23,0.10171,-0.06
8.22801,-2.71192,1.869,7.73895,0.35,1.28,0.87,-0.418434,0,-1.06003,0,0.76845,-0.411566,-0.0623162,-2.02018,-0.360897,-0.134241,0.284747,0.791599,0.718238,-0.765791,0.438026,-0.23,0.0961338,-0.06
8.26002,-2.73068,1.86175,7.77918,0.35,1.28,0.87,-0.427727,0,-1.08357,0,0.789514,-0.402273,-0.0881303,-2.02307,-0.375353,-0.131226,0.292182,0.805848,0.712869,-0.76703,0.406223,-0.23,0.091384,-0.06
8.29203,-2.74937,1.8543,7.81941,0.35,1.28,0.87,-0.435404,0,-1.10302,0,0.806915,-0.394596,-0.109455,-2.02546,-0.387295,-0.128736,0.298323,0.817619,0.708433,-0.768054,0.379951,-0.23,0.0874603,-0.06
8.32405,-2.76798,1.84667,7.85964,0.35,1.28,0.87,-0.441465,0,-1.11838,0,0.820653,-0.388535,-0.12629,-2.02734,-0.396723,-0.126769,0.303172,0.826912,0.704932,-0.768862,0.35921,-0.23,0.0843626,-0.06
8.35606,-2.78651,1.83886,7.89987,0.35,1.28,0.87,-0.445909,0,-1.12964,0,0.830727,-0.384091,-0.138636,-2.02873,-0.403636,-0.125327,0.306727,0.833727,0.702364,-0.769455,0.344,-0.23,0.0820909,-0.06
8.38807,-2.80497,1.83085,7.9401,0.35,1.28,0.87,-0.448737,0,-1.1368,0,0.837138,-0.381263,-0.146493,-2.02961,-0.408036,-0.12441,0.30899,0.838064,0.70073,-0.769832,0.334321,-0.23,0.0806454,-0.06
8.42008,-2.82334,1.82267,7.98032,0.35,1.28,0.87,-0.449949,0,-1.13987,0,0.839886,-0.380051,-0.14986,-2.02998,-0.409921,-0.124016,0.30996,0.839923,0.700029,-0.769993,0.330173,-0.23,0.0800258,-0.06
8.4521,-2.84163,1.81429,8.02055,0.35,1.28,0.87,-0.45,0,-1.14,0,0.84,-0.38,-0.15,-2.03,-0.41,-0.124,0.31,0.84,0.7,-0.77,0.33,-0.23,0.08,-0.06
8.48411,-2.85983,1.80574,8.06078,0.35,1.28,0.87,-0.45,0,-1.14,0,0.84,-0.38,-0.15,-2.03,-0.41,-0.124,0.31,0.84,0.7,-0.77,0.33,-0.23,0.08,-0.06
8.51612,-2.87795,1.797,8.10101,0.35,1.28,0.87,-0.45,0,-1.14,0,0.84,-0.38,-0.15,-2.03,-0.41,-0.124,0.31,0.84,0.7,-0.77,0.33,-0.23,0.08,-0.06
8.54813,-2.89598,1.78808,8.14124,0.35,1.28,0.87,-0.45,0,-1.14,0,0.84,-0.38,-0.15,-2.03,-0.41,-0.124,0.31,0.84,0.7,-0.77,0.33,-0.23,0.08,-0.06
8.58015,-2.91391,1.77898,8.18147,0.35,1.28,0.87,-0.45,0,-1.14,0,0.84,-0.38,-0.15,-2.03,-0.41,-0.124,0.31,0.84,0.7,-0.77,0.33,-0.23,0.08,-0.06
8.61216,-2.93176,1.7697,8.2217,0.35,1.28,0.87,-0.45,0,-1.14,0,0.84,-0.38,-0.15,-2.03,-0.41,-0.124,0.31,0.84,0.7,-0.77,0.33,-0.23,0.08,-0.06
8.64417,-2.94951,1.76024,8.26192,0.35,1.28,0.87,-0.45,0,-1.14,0,0.84,-0.38,-0.15,-2.03,-0.41,-0.124,0.31,0.84,0.7,-0.77,0.33,-0.23,0.08,-0.06
8.67619,-2.96716,1.7506,8.30215,0.35,1.28,0.87,-0.45,0,-1.14,0,0.84,-0.38,-0.15,-2.03,-0.41,-0.124,0.31,0.84,0.7,-0.77,0.33,-0.23,0.08,-0.06
8.7082,-2.98472,1.74078,8.34238,0.35,1.28,0.87,-0.45,0,-1.14,0,0.84,-0.38,-0.15,-2.03,-0.41,-0.124,0.31,0.84,0.7,-0.77,0.33,-0.23,0.08,-0.06
8.74021,-3.00218,1.73079,8.38261,0.35,1.28,0.87,-0.45,0,-1.14,0,0.84,-0.38,-0.15,-2.03,-0.41,-0.124,0.31,0.84,0.7,-0.77,0.33,-0.23,0.08,-0.06
8.77222,-3.01953,1.72063,8.42284,0.35,1.28,0.87,-0.45,0,-1.14,0,0.84,-0.38,-0.15,-2.03,-0.41,-0.124,0.31,0.84,0.7,-0.77,0.33,-0.23,0.08,-0.06
8.80424,-3.03679,1.71029,8.46307,0.35,1.28,0.87,-0.45,0,-1.14,0,0.84,-0.38,-0.15,-2.03,-0.41,-0.124,0.31,0.84,0.7,-0.77,0.33,-0.23,0.08,-0.06
8.83625,-3.05393,1.69977,8.50329,0.35,1.28,0.87,-0.45,0,-1.14,0,0.84,-0.38,-0.15,-2.03,-0.41,-0.124,0.31,0.84,0.7,-0.77,0.33,-0.23,0.08,-0.06
8.86826,-3.07097,1.68909,8.54352,0.35,1.28,0.87,-0.45,0,-1.14,0,0.84,-0.38,-0.15,-2.03,-0.41,-0.124,0.31,0.84,0.7,-0.77,0.33,-0.23,0.08,-0.06
8.90028,-3.08791,1.67823,8.58375,0.35,1.28,0.87,-0.45,0,-1.14,0,0.84,-0.38,-0.15,-2.03,-0.41,-0.124,0.31,0.84,0.7,-0.77,0.33,-0.23,0.08,-0.06
8.93229,-3.10473,1.6672,8.62398,0.35,1.28,0.87,-0.45,0,-1.14,0,0.84,-0.38,-0.15,-2.03,-0.41,-0.124,0.31,0.84,0.7,-0.77,0.33,-0.23,0.08,-0.06
8.9643,-3.12144,1.65601,8.66421,0.35,1.28,0.87,-0.45,0,-1.14,0,0.84,-0.38,-0.15,-2.03,-0.41,-0.124,0.31,0.84,0.7,-0.77,0.33,-0.23,0.08,-0.06
8.99631,-3.13804,1.64465,8.70444,0.35,1.28,0.87,-0.45,0,-1.14,0,0.84,-0.38,-0.15,-2.03,-0.41,-0.124,0.31,0.84,0.7,-0.77,0.33,-0.23,0.08,-0.06
9.02833,-3.15452,1.63312,8.74467,0.35,1.28,0.87,-0.45,0,-1.14,0,0.84,-0.38,-0.15,-2.03,-0.41,-0.124,0.31,0.84,0.7,-0.77,0.33,-0.23,0.08,-0.06
9.06034,-3.17089,1.62143,8.78489,0.35,1.28,0.87,-0.45,0,-1.14,0,0.84,-0.38,-0.15,-2.03,-0.41,-0.124,0.31,0.84,0.7,-0.77,0.33,-0.23,0.08,-0.06
9.09235,-3.18713,1.60957,8.82512,0.35,1.28,0.87,-0.45,0,-1.14,0,0.84,-0.38,-0.15,-2.03,-0.41,-0.124,0.31,0.84,0.7,-0.77,0.33,-0.23,0.08,-0.06
9.12437,-3.20326,1.59755,8.86535,0.35,1.28,0.87,-0.45,0,-1.14,0,0.84,-0.38,-0.15,-2.03,-0.41,-0.124,0.31,0.84,0.7,-0.77,0.33,-0.23,0.08,-0.06
9.15638,-3.21927,1.58537,8.90558,0.35,1.28,0.87,-0.45,0,-1.14,0,0.84,-0.38,-0.15,-2.03,-0.41,-0.124,0.31,0.84,0.7,-0.77,0.33,-0.23,0.08,-0.06
9.18839,-3.23515,1.57302,8.94581,0.35,1.28,0.87,-0.45,0,-1.14,0,0.84,-0.38,-0.15,-2.03,-0.41,-0.124,0.31,0.84,0.7,-0.77,0.33,-0.23,0.08,-0.06
9.2204,-3.25091,1.56052,8.98604,0.35,1.28,0.87,-0.45,0,-1.14,0,0.84,-0.38,-0.15,-2.03,-0.41,-0.124,0.31,0.84,0.7,-0.77,0.33,-0.23,0.08,-0.06
9.25242,-3.26654,1.54786,9.02626,0.35,1.28,0.87,-0.45,0,-1.14,0,0.84,-0.38,-0.15,-2.03,-0.41,-0.124,0.31,0.84,0.7,-0.77,0.33,-0.23,0.08,-0.06
9.28443,-3.28204,1.53505,9.06649,0.35,1.28,0.87,-0.45,0,-1.14,0,0.84,-0.38,-0.15,-2.03,-0.41,-0.124,0.31,0.84,0.7,-0.77,0.33,-0.23,0.08,-0.06
9.31644,-3.29741,1.52208,9.10672,0.35,1.28,0.87,-0.45,0,-1.14,0,0.84,-0.38,-0.15,-2.03,-0.41,-0.124,0.31,0.84,0.7,-0.77,0.33,-0.23,0.08,-0.06
9.34846,-3.31266,1.50895,9.14695,0.35,1.28,0.87,-0.45,0,-1.14,0,0.84,-0.38,-0.15,-2.03,-0.41,-0.124,0.31,0.84,0.7,-0.77,0.33,-0.23,0.08,-0.06
9.38047,-3.32776,1.49567,9.18718,0.35,1.28,0.87,-0.45,0,-1.14,0,0.84,-0.38,-0.15,-2.03,-0.41,-0.124,0.31,0.84,0.7,-0.77,0.33,-0.23,0.08,-0.06
9.41248,-3.34274,1.48225,9.22741,0.35,1.28,0.87,-0.45,0,-1.14,0,0.84,-0.38,-0.15,-2.03,-0.41,-0.124,0.31,0.84,0.7,-0.77,0.33,-0.23,0.08,-0.06
9.44449,-3.35758,1.46867,9.26764,0.35,1.28,0.87,-0.45,0,-1.14,0,0.84,-0.38,-0.15,-2.03,-0.41,-0.124,0.31,0.84,0.7,-0.77,0.33,-0.23,0.08,-0.06
9.47651,-3.37228,1.45494,9.30786,0.35,1.28,0.87,-0.45,0,-1.14,0,0.84,-0.38,-0.15,-2.03,-0.41,-0.124,0.31,0.84,0.7,-0.77,0.33,-0.23,0.08,-0.06
9.50852,-3.38684,1.44106,9.34809,0.35,1.28,0.87,-0.45,0,-1.14,0,0.84,-0.38,-0.15,-2.03,-0.41,-0.124,0.31,0.84,0.7,-0.77,0.33,-0.23,0.08,-0.06
9.54053,-3.40127,1.42704,9.38832,0.35,1.28,0.87,-0.45,0,-1.14,0,0.84,-0.38,-0.15,-2.03,-0.41,-0.124,0.31,0.84,0.7,-0.77,0.33,-0.23,0.08,-0.06
9.57254,-3.41555,1.41288,9.42855,0.35,1.28,0.87,-0.45,0,-1.14,0,0.84,-0.38,-0.15,-2.03,-0.41,-0.124,0.31,0.84,0.7,-0.77,0.33,-0.23,0.08,-0.06
9.60456,-3.42968,1.39857,9.46878,0.35,1.28,0.87,-0.45,0,-1.14,0,0.84,-0.38,-0.15,-2.03,-0.41,-0.124,0.31,0.84,0.7,-0.77,0.33,-0.23,0.08,-0.06
9.63657,-3.44368,1.38412,9.50901,0.35,1.28,0.87,-0.45,0,-1.14,0,0.84,-0.38,-0.15,-2.03,-0.41,-0.124,0.31,0.84,0.7,-0.77,0.33,-0.23,0.08,-0.06
9.66858,-3.45752,1.36953,9.54923,0.35,1.28,0.87,-0.45,0,-1.14,0,0.84,-0.38,-0.15,-2.03,-0.41,-0.124,0.31,0.84,0.7,-0.77,0.33,-0.23,0.08,-0.06
9.7006,-3.47122,1.35481,9.58946,0.35,1.28,0.87,-0.45,0,-1.14,0,0.84,-0.38,-0.15,-2.03,-0.41,-0.124,0.31,0.84,0.7,-0.77,0.33,-0.23,0.08,-0.06
9.73261,-3.48477,1.33994,9.62969,0.35,1.28,0.87,-0.45,0,-1.14,0,0.84,-0.38,-0.15,-2.03,-0.41,-0.124,0.31,0.84,0.7,-0.77,0.33,-0.23,0.08,-0.06
9.76462,-3.49818,1.32494,9.66992,0.35,1.28,0.87,-0.45,0,-1.14,0,0.84,-0.38,-0.15,-2.03,-0.41,-0.124,0.31,0.84,0.7,-0.77,0.33,-0.23,0.08,-0.06
9.79663,-3.51142,1.30981,9.71015,0.35,1.28,0.87,-0.45,0,-1.14,0,0.84,-0.38,-0.15,-2.03,-0.41,-0.124,0.31,0.84,0.7,-0.77,0.33,-0.23,0.08,-0.06
9.82865,-3.52452,1.29454,9.75038,0.35,1.28,0.87,-0.45,0,-1.14,0,0.84,-0.38,-0.15,-2.03,-0.41,-0.124,0.31,0.84,0.7,-0.77,0.33,-0.23,0.08,-0.06
9.86066,-3.53746,1.27914,9.79061,0.35,1.28,0.87,-0.449993,0,-1.13998,0,0.840005,-0.380015,-0.149994,-2.02998,-0.409989,-0.124003,0.309995,0.83997,0.70001,-0.769992,0.330003,-0.230001,0.0800034,-0.0599983
9.89267,-3.55025,1.26362,9.83083,0.35,1.28,0.87,-0.44945,0,-1.13861,0,0.840403,-0.38121,-0.149527,-2.02816,-0.409142,-0.124224,0.30956,0.837542,0.700819,-0.769348,0.330242,-0.230076,0.0802775,-0.0598655
9.92469,-3.56288,1.24796,9.87106,0.35,1.28,0.87,-0.448037,0,-1.13503,0,0.84144,-0.384319,-0.148312,-2.02345,-0.406938,-0.124798,0.30843,0.831232,0.702923,-0.767675,0.330864,-0.23027,0.0809903,-0.0595201
9.9567,-3.57535,1.23218,9.91129,0.35,1.28,0.87,-0.445755,0,-1.12924,0,0.843113,-0.38934,-0.146349,-2.01583,-0.403377,-0.125726,0.306604,0.821037,0.706321,-0.764972,0.331868,-0.230585,0.0821416,-0.0589622
9.98871,-3.58766,1.21628,9.95152,0.35,1.28,0.87,-0.442603,0,-1.12126,0,0.845425,-0.396274,-0.143638,-2.00531,-0.39846,-0.127008,0.304082,0.806959,0.711014,-0.761238,0.333255,-0.231019,0.0837315,-0.0581918
10.0207,-3.59981,1.20025,9.99175,0.35,1.28,0.87,-0.438582,0,-1.11107,0,0.848374,-0.405121,-0.14018,-1.99189,-0.392187,-0.128644,0.300865,0.788998,0.717001,-0.756475,0.335024,-0.231573,0.08576,-0.0572088
10.0527,-3.6118,1.1841,10.032,0.35,1.28,0.87,-0.433691,0,-1.09868,0,0.85196,-0.41588,-0.135974,-1.97556,-0.384558,-0.130632,0.296953,0.767152,0.724283,-0.750683,0.337176,-0.232247,0.0882271,-0.0560133
10.0847,-3.62363,1.16783,10.0722,0.35,1.28,0.87,-0.427931,0,-1.08409,0,0.856184,-0.428553,-0.13102,-1.95634,-0.375572,-0.132975,0.292345,0.741424,0.732859,-0.74386,0.339711,-0.233041,0.0911328,-0.0546053
10.1168,-3.63529,1.15144,10.1124,0.35,1.28,0.87,-0.421301,0,-1.0673,0,0.861046,-0.443138,-0.125319,-1.93421,-0.36523,-0.135671,0.287041,0.711811,0.74273,-0.736008,0.342628,-0.233954,0.094477,-0.0529847
10.1488,-3.64679,1.13494,10.1527,0.35,1.28,0.87,-0.413802,0,-1.0483,0,0.866545,-0.459636,-0.11887,-1.90918,-0.353531,-0.138721,0.281042,0.678315,0.753895,-0.727125,0.345927,-0.234987,0.0982599,-0.0511516
10.1808,-3.65812,1.11832,10.1929,0.35,1.28,0.87,-0.405433,0,-1.0271,0,0.872682,-0.478047,-0.111673,-1.88125,-0.340476,-0.142124,0.274347,0.640936,0.766355,-0.717213,0.349609,-0.23614,0.102481,-0.0491059
10.2128,-3.66929,1.10158,10.2331,0.35,1.28,0.87,-0.396195,0,-1.00369,0,0.879457,-0.49837,-0.103728,-1.85041,-0.326065,-0.145881,0.266956,0.599673,0.780109,-0.706271,0.353674,-0.237413,0.107141,-0.0468478
10.2448,-3.68028,1.08474,10.2733,0.35,1.28,0.87,-0.386088,0,-0.978089,0,0.886869,-0.520607,-0.0950356,-1.81668,-0.310297,-0.149991,0.25887,0.554526,0.795158,-0.6943,0.358121,-0.238806,0.11224,-0.044377
10.2768,-3.6911,1.06779,10.3136,0.35,1.28,0.87,-0.375111,0,-0.950281,0,0.894919,-0.544756,-0.0855954,-1.78004,-0.293173,-0.154455,0.250089,0.505496,0.811501,-0.681298,0.362951,-0.240318,0.117777,-0.0416938
10.3088,-3.70176,1.05073,10.3538,0.35,1.28,0.87,-0.363265,0,-0.92027,0,0.903606,-0.570818,-0.0754075,-1.7405,-0.274693,-0.159272,0.240612,0.452582,0.829139,-0.667267,0.368164,-0.24195,0.123753,-0.038798
10.3409,-3.71224,1.03356,10.394,0.35,1.28,0.87,-0.350549,0,-0.888057,0,0.912931,-0.598793,-0.0644719,-1.69805,-0.254856,-0.164444,0.230439,0.395784,0.848072,-0.652205,0.373759,-0.243702,0.130168,-0.0356897
10.3729,-3.72255,1.01629,10.4343,0.35,1.28,0.87,-0.336963,0,-0.853641,0,0.922894,-0.628681,-0.0527885,-1.65271,-0.233663,-0.169968,0.219571,0.335103,0.868299,-0.636114,0.379736,-0.245574,0.137021,-0.0323688
10.4049,-3.73268,0.998911,10.4745,0.35,1.28,0.87,-0.322509,0,-0.817022,0,0.933494,-0.660481,-0.0403574,-1.60446,-0.211113,-0.175846,0.208007,0.270539,0.88982,-0.618994,0.386096,-0.247565,0.144312,-0.0288354
10.4369,-3.74264,0.981435,10.5147,0.35,1.28,0.87,-0.307184,0,-0.7782,0,0.944731,-0.694194,-0.0271786,-1.55331,-0.187208,-0.182078,0.195748,0.20209,0.912637,-0.600843,0.392839,-0.249677,0.152043,-0.0250895
10.4689,-3.75242,0.96386,10.5549,0.35,1.28,0.87,-0.290991,0,-0.737176,0,0.956607,-0.72982,-0.013252,-1.49926,-0.161945,-0.188664,0.182793,0.129758,0.936747,-0.581662,0.399964,-0.251908,0.160211,-0.0211311
10.5009,-3.76202,0.946187,10.5952,0.35,1.28,0.87,-0.273928,0,-0.69395,0,0.96912,-0.767359,0.00142232,-1.44231,-0.135327,-0.195603,0.169142,0.053543,0.962152,-0.561452,0.407472,-0.254259,0.168819,-0.0169601
10.5329,-3.77145,0.928419,10.6354,0.35,1.28,0.87,-0.255995,0,-0.64852,0,0.98227,-0.806811,0.0168444,-1.38245,-0.107352,-0.202895,0.154796,-0.026556,0.988852,-0.540212,0.415362,-0.25673,0.177865,-0.0125765
10.5649,-3.7807,0.910556,10.6756,0.35,1.28,0.87,-0.237193,0,-0.600889,0,0.996059,-0.848176,0.0330141,-1.3197,-0.0780209,-0.210542,0.139754,-0.110538,1.01685,-0.517942,0.423635,-0.25932,0.187349,-0.00798048
10.597,-3.78977,0.892602,10.7159,0.35,1.28,0.87,-0.217644,0,-0.551364,0,1.01039,-0.891184,0.0498265,-1.25445,-0.0475241,-0.218492,0.124115,-0.197858,1.04595,-0.494787,0.432237,-0.262014,0.197211,-0.00320178
10.629,-3.79865,0.874557,10.7561,0.35,1.28,0.87,-0.198624,0,-0.503181,0,1.02434,-0.933027,0.0661832,-1.19096,-0.0178536,-0.226226,0.108899,-0.282812,1.07427,-0.472259,0.440605,-0.264634,0.206805,0.00144743
10.661,-3.80736,0.856424,10.7963,0.35,1.28,0.87,-0.180474,0,-0.457201,0,1.03765,-0.972957,0.0817922,-1.13038,0.0104603,-0.233607,0.0943793,-0.363882,1.10129,-0.450762,0.448591,-0.267135,0.215961,0.0058841
10.693,-3.81588,0.838204,10.8365,0.35,1.28,0.87,-0.163194,0,-0.413424,0,1.05032,-1.01097,0.0966535,-1.0727,0.0374179,-0.240635,0.0805549,-0.441068,1.12702,-0.430294,0.456195,-0.269516,0.224678,0.0101082
10.725,-3.82422,0.8199,10.8768,0.35,1.28,0.87,-0.146783,0,-0.371849,0,1.06236,-1.04708,0.110767,-1.01793,0.0630192,-0.247308,0.067426,-0.514371,1.15146,-0.410856,0.463416,-0.271777,0.232956,0.0141198
10.757,-3.83237,0.801512,10.917,0.35,1.28,0.87,-0.131241,0,-0.332477,0,1.07376,-1.08127,0.124133,-0.966053,0.0872641,-0.253629,0.0549928,-0.58379,1.1746,-0.392448,0.470254,-0.273918,0.240796,0.0179189
10.789,-3.84034,0.783043,10.9572,0.35,1.28,0.87,-0.116569,0,-0.295308,0,1.08452,-1.11355,0.136751,-0.917081,0.110153,-0.259595,0.0432551,-0.649326,1.19644,-0.375069,0.47671,-0.275939,0.248198,0.0215054
10.821,-3.84812,0.764496,10.9975,0.35,1.28,0.87,-0.102766,0,-0.260341,0,1.09464,-1.14391,0.148621,-0.871011,0.131685,-0.265208,0.0322129,-0.710978,1.21699,-0.358721,0.482783,-0.277841,0.25516,0.0248794
10.8531,-3.85571,0.745871,11.0377,0.35,1.28,0.87,-0.0898329,0,-0.227577,0,1.10412,-1.17237,0.159744,-0.827842,0.151861,-0.270468,0.0218663,-0.768746,1.23625,-0.343402,0.488474,-0.279623,0.261684,0.0280408
10.8851,-3.86312,0.72717,11.0779,0.35,1.28,0.87,-0.0777691,0,-0.197015,0,1.11297,-1.19891,0.170119,-0.787576,0.17068,-0.275374,0.0122153,-0.822631,1.25421,-0.329113,0.493782,-0.281285,0.26777,0.0309898
10.9171,-3.87034,0.708396,11.1181,0.35,1.28,0.87,-0.0665748,0,-0.168656,0,1.12118,-1.22354,0.179746,-0.750212,0.188143,-0.279926,0.00325988,-0.872632,1.27088,-0.315854,0.498707,-0.282827,0.273417,0.0337261
10.9491,-3.87737,0.68955,11.1584,0.35,1.28,0.87,-0.05625,0,-0.1425,0,1.12875,-1.24625,0.188625,-0.71575,0.20425,-0.284125,-0.005,-0.91875,1.28625,-0.303625,0.50325,-0.28425,0.278625,0.03625
10.9811,-3.88421,0.670635,11.1986,0.35,1.28,0.87,-0.0467946,0,-0.118546,0,1.13568,-1.26705,0.196757,-0.68419,0.219,-0.28797,-0.0125643,-0.960984,1.30033,-0.292426,0.50741,-0.285553,0.283395,0.0385613
11.0131,-3.89086,0.651651,11.2388,0.35,1.28,0.87,-0.0382087,0,-0.0967954,0,1.14198,-1.28594,0.204141,-0.655532,0.232394,-0.291462,-0.019433,-0.999334,1.31311,-0.282256,0.511188,-0.286736,0.287726,0.0406601
11.0451,-3.89732,0.632602,11.2791,0.35,1.28,0.87,-0.0304922,0,-0.077247,0,1.14764,-1.30292,0.210777,-0.629776,0.244432,-0.2946,-0.0256062,-1.0338,1.3246,-0.273116,0.514583,-0.287799,0.291618,0.0425463
11.0771,-3.90358,0.613489,11.3193,0.35,1.28,0.87,-0.0236452,0,-0.0599013,0,1.15266,-1.31798,0.216665,-0.606923,0.255113,-0.297384,-0.0310838,-1.06438,1.33479,-0.265006,0.517596,-0.288742,0.295072,0.0442201
11.1092,-3.90966,0.594314,11.3595,0.35,1.28,0.87,-0.0176677,0,-0.0447582,0,1.15704,-1.33113,0.221806,-0.586971,0.264438,-0.299815,-0.0358658,-1.09108,1.34369,-0.257926,0.520226,-0.289566,0.298088,0.0456812
11.1412,-3.91554,0.575078,11.3997,0.35,1.28,0.87,-0.0125596,0,-0.0318177,0,1.16079,-1.34237,0.226199,-0.569921,0.272407,-0.301892,-0.0399523,-1.1139,1.3513,-0.251876,0.522474,-0.29027,0.300664,0.0469299
11.1732,-3.92122,0.555785,11.44,0.35,1.28,0.87,-0.00832101,0,-0.0210799,0,1.1639,-1.35169,0.229844,-0.555774,0.279019,-0.303616,-0.0433432,-1.13283,1.35761,-0.246856,0.524339,-0.290854,0.302803,0.047966
11.2052,-3.92672,0.536435,11.4802,0.35,1.28,0.87,-0.00495185,0,-0.0125447,0,1.16637,-1.35911,0.232741,-0.544528,0.284275,-0.304986,-0.0460385,-1.14788,1.36263,-0.242865,0.525821,-0.291318,0.304502,0.0487895
11.2372,-3.93201,0.517031,11.5204,0.35,1.28,0.87,-0.00245215,0,-0.00621211,0,1.1682,-1.36461,0.234891,-0.536185,0.288175,-0.306003,-0.0480383,-1.15905,1.36635,-0.239904,0.526921,-0.291662,0.305763,0.0494006
11.2692,-3.93712,0.497575,11.5607,0.35,1.28,0.87,-0.000821911,0,-0.00208218,0,1.1694,-1.36819,0.236293,-0.530743,0.290718,-0.306666,-0.0493425,-1.16633,1.36878,-0.237974,0.527638,-0.291887,0.306585,0.0497991
11.3012,-3.94202,0.478068,11.6009,0.35,1.28,0.87,-6.11339e-05,0,-0.000154873,0,1.16996,-1.36987,0.236947,-0.528204,0.291905,-0.306975,-0.0499511,-1.16973,1.36991,-0.237072,0.527973,-0.291992,0.306969,0.0499851
11.3332,-3.94673,0.458513,11.6411,0.35,1.28,0.87,-3.02032e-19,0,-2.07416e-18,0,1.17,-1.37,0.237,-0.528,0.292,-0.307,-0.05,-1.17,1.37,-0.237,0.528,-0.292,0.307,0.05
11.3653,-3.95124,0.438912,11.6813,0.35,1.28,0.87,-3.02032e-19,0,-2.07416e-18,0,1.17,-1.37,0.237,-0.528,0.292,-0.307,-0.05,-1.17,1.37,-0.237,0.528,-0.292,0.307,0.05
11.3973,-3.95556,0.419266,11.7216,0.35,1.28,0.87,-3.02032e-19,0,-2.07416e-18,0,1.17,-1.37,0.237,-0.528,0.292,-0.307,-0.05,-1.17,1.37,-0.237,0.528,-0.292,0.307,0.05
11.4293,-3.95968,0.399578,11.7618,0.35,1.28,0.87,-3.02032e-19,0,-2.07416e-18,0,1.17,-1.37,0.237,-0.528,0.292,-0.307,-0.05,-1.17,1.37,-0.237,0.528,-0.292,0.307,0.05
11.4613,-3.9636,0.379849,11.802,0.35,1.28,0.87,-3.02032e-19,0,-2.07416e-18,0,1.17,-1.37,0.237,-0.528,0.292,-0.307,-0.05,-1.17,1.37,-0.237,0.528,-0.292,0.307,0.05
11.4933,-3.96732,0.360082,11.8423,0.35,1.28,0.87,-3.02032e-19,0,-2.07416e-18,0,1.17,-1.37,0.237,-0.528,0.292,-0.307,-0.05,-1.17,1.37,-0.237,0.528,-0.292,0.307,0.05
11.5253,-3.97084,0.340279,11.8825,0.35,1.28,0.87,-3.02032e-19,0,-2.07416e-18,0,1.17,-1.37,0.237,-0.528,0.292,-0.307,-0.05,-1.17,1.37,-0.237,0.528,-0.292,0.307,0.05
11.5573,-3.97416,0.320441,11.9227,0.35,1.28,0.87,-3.02032e-19,0,-2.07416e-18,0,1.17,-1.37,0.237,-0.528,0.292,-0.307,-0.05,-1.17,1.37,-0.237,0.528,-0.292,0.307,0.05
11.5894,-3.97729,0.30057,11.9629,0.35,1.28,0.87,0,0,0,0,1.17,-1.37,0.237,-0.528,0.292,-0.307,-0.05,-1.17,1.37,-0.237,0.528,-0.292,0.307,0.05
11.6214,-3.98021,0.28067,12.0032,0.35,1.28,0.87,0,0,0,0,1.17,-1.37,0.237,-0.528,0.292,-0.307,-0.05,-1.17,1.37,-0.237,0.528,-0.292,0.307,0.05
11.6534,-3.98293,0.260741,12.0434,0.35,1.28,0.87,0,0,0,0,1.17,-1.37,0.237,-0.528,0.292,-0.307,-0.05,-1.17,1.37,-0.237,0.528,-0.292,0.307,0.05
11.6854,-3.98545,0.240785,12.0836,0.35,1.28,0.87,0,0,0,0,1.17,-1.37,0.237,-0.528,0.292,-0.307,-0.05,-1.17,1.37,-0.237,0.528,-0.292,0.307,0.05
11.7174,-3.98777,0.220806,12.1239,0.35,1.28,0.87,0,0,0,0,1.17,-1.37,0.237,-0.528,0.292,-0.307,-0.05,-1.17,1.37,-0.237,0.528,-0.292,0.307,0.05
11.7494,-3.98989,0.200803,12.1641,0.35,1.28,0.87,0,0,0,0,1.17,-1.37,0.237,-0.528,0.292,-0.307,-0.05,-1.17,1.37,-0.237,0.528,-0.292,0.307,0.05
11.7814,-3.99181,0.180781,12.2043,0.35,1.28,0.87,0,0,0,0,1.17,-1.37,0.237,-0.528,0.292,-0.307,-0.05,-1.17,1.37,-0.237,0.528,-0.292,0.307,0.05
11.8134,-3.99353,0.16074,12.2445,0.35,1.28,0.87,0,0,0,0,1.17,-1.37,0.237,-0.528,0.292,-0.307,-0.05,-1.17,1.37,-0.237,0.528,-0.292,0.307,0.05
11.8455,-3.99505,0.140683,12.2848,0.35,1.28,0.87,0,0,0,0,1.17,-1.37,0.237,-0.528,0.292,-0.307,-0.05,-1.17,1.37,-0.237,0.528,-0.292,0.307,0.05
11.8775,-3.99636,0.120612,12.325,0.35,1.28,0.87,0,0,0,0,1.17,-1.37,0.237,-0.528,0.292,-0.307,-0.05,-1.17,1.37,-0.237,0.528,-0.292,0.307,0.05
11.9095,-3.99747,0.100529,12.3652,0.35,1.28,0.87,0,0,0,0,1.17,-1.37,0.237,-0.528,0.292,-0.307,-0.05,-1.17,1.37,-0.237,0.528,-0.292,0.307,0.05
11.9415,-3.99838,0.0804353,12.4055,0.35,1.28,0.87,0,0,0,0,1.17,-1.37,0.237,-0.528,0.292,-0.307,-0.05,-1.17,1.37,-0.237,0.528,-0.292,0.307,0.05
11.9735,-3.99909,0.0603336,12.4457,0.35,1.28,0.87,0,0,0,0,1.17,-1.37,0.237,-0.528,0.292,-0.307,-0.05,-1.17,1.37,-0.237,0.528,-0.292,0.307,0.05
12.0055,-3.9996,0.0402258,12.4859,0.35,1.28,0.87,0,0,0,0,1.17,-1.37,0.237,-0.528,0.292,-0.307,-0.05,-1.17,1.37,-0.237,0.528,-0.292,0.307,0.05
12.0375,-3.9999,0.0201139,12.5261,0.35,1.28,0.87,0,0,0,0,1.17,-1.37,0.237,-0.528,0.292,-0.307,-0.05,-1.17,1.37,-0.237,0.528,-0.292,0.307,0.05
12.0696,-4,0.00251428,12.5613,0.35,1.28,0.870001,0,0,0,0,1.06997,-1.37,0.23698,-0.527992,0.292011,-0.306997,-0.0499992,-1.06997,1.37,-0.23698,0.527992,-0.292011,0.306997,0.0499992
12.1017,-4,0.00251428,12.5613,0.350038,1.28007,0.870046,0,0,0,0,1.06762,-1.37004,0.235345,-0.527367,0.292892,-0.306735,-0.0499312,-1.06762,1.37004,-0.235345,0.527367,-0.292892,0.306735,0.0499312
12.1338,-4,0.00251428,12.5613,0.350136,1.28025,0.870164,0,0,0,0,1.0615,-1.37014,0.231094,-0.525743,0.295183,-0.306054,-0.0497547,-1.0615,1.37014,-0.231094,0.525743,-0.295183,0.306054,0.0497547
12.1659,-4,0.00251428,12.5613,0.350295,1.28053,0.870354,0,0,0,0,1.05161,-1.37029,0.224227,-0.52312,0.298884,-0.304955,-0.0494695,-1.05161,1.37029,-0.224227,0.52312,-0.298884,0.304955,0.0494695
12.198,-4,0.00251428,12.5613,0.350514,1.28092,0.870616,0,0,0,0,1.03796,-1.37051,0.214745,-0.519496,0.303995,-0.303436,-0.0490757,-1.03796,1.37051,-0.214745,0.519496,-0.303995,0.303436,0.0490757
12.2301,-4,0.00251428,12.5613,0.350793,1.28143,0.870951,0,0,0,0,1.02054,-1.37079,0.202646,-0.514874,0.310516,-0.301499,-0.0485732,-1.02054,1.37079,-0.202646,0.514874,-0.310516,0.301499,0.0485732
12.2622,-4,0.00251428,12.5613,0.351132,1.28204,0.871359,0,0,0,0,0.999353,-1.37113,0.187932,-0.509251,0.318447,-0.299143,-0.0479621,-0.999353,1.37113,-0.187932,0.509251,-0.318447,0.299143,0.0479621
12.2943,-4,0.00251428,12.5613,0.351532,1.28276,0.871838,0,0,0,0,0.974402,-1.37153,0.170602,-0.50263,0.327788,-0.296368,-0.0472424,-0.974402,1.37153,-0.170602,0.50263,-0.327788,0.296368,0.0472424
12.3264,-4,0.00251428,12.5613,0.351992,1.28359,0.872391,0,0,0,0,0.945684,-1.37199,0.150656,-0.495008,0.338539,-0.293174,-0.046414,-0.945684,1.37199,-0.150656,0.495008,-0.338539,0.293174,0.046414
12.3585,-4,0.00251428,12.5613,0.352513,1.28452,0.873015,0,0,0,0,0.9132,-1.37251,0.128094,-0.486388,0.350699,-0.289561,-0.0454769,-0.9132,1.37251,-0.128094,0.486388,-0.350699,0.289561,0.0454769
12.3906,-4,0.00251428,12.5613,0.353094,1.28557,0.873713,0,0,0,0,0.87695,-1.37309,0.102917,-0.476767,0.36427,-0.285529,-0.0444312,-0.87695,1.37309,-0.102917,0.476767,-0.36427,0.285529,0.0444312
12.4227,-4,0.00251428,12.5613,0.353735,1.28672,0.874482,0,0,0,0,0.836933,-1.37374,0.0751233,-0.466148,0.379251,-0.281079,-0.0432769,-0.836933,1.37374,-0.0751233,0.466148,-0.379251,0.281079,0.0432769
12.4548,-4,0.00251428,12.5613,0.354437,1.28799,0.875324,0,0,0,0,0.793151,-1.37444,0.0447139,-0.454528,0.395641,-0.276209,-0.042014,-0.793151,1.37444,-0.0447139,0.454528,-0.395641,0.276209,0.042014
12.4869,-4,0.00251428,12.5613,0.355199,1.28936,0.876238,0,0,0,0,0.745602,-1.3752,0.0116887,-0.44191,0.413441,-0.270921,-0.0406424,-0.745602,1.3752,-0.0116887,0.44191,-0.413441,0.270921,0.0406424
12.519,-4,0.00251428,12.5613,0.356021,1.29084,0.877225,0,0,0,0,0.694286,-1.37602,-0.0239524,-0.428291,0.432652,-0.265214,-0.0391621,-0.694286,1.37602,0.0239524,0.428291,-0.432652,0.265214,0.0391621
12.5511,-4,0.00251428,12.5613,0.356904,1.29243,0.878285,0,0,0,0,0.639205,-1.3769,-0.0622093,-0.413674,0.453272,-0.259088,-0.0375732,-0.639205,1.3769,0.0622093,0.413674,-0.453272,0.259088,0.0375732
12.5832,-4,0.00251428,12.5613,0.357847,1.29412,0.879416,0,0,0,0,0.580357,-1.37785,-0.103082,-0.398056,0.475302,-0.252543,-0.0358757,-0.580357,1.37785,0.103082,0.398056,-0.475302,0.252543,0.0358757
12.6153,-4,0.00251428,12.5613,0.35885,1.29593,0.88062,0,0,0,0,0.517743,-1.37885,-0.146571,-0.38144,0.498742,-0.245579,-0.0340695,-0.517743,1.37885,0.146571,0.38144,-0.498742,0.245579,0.0340695
12.6474,-4,0.00251428,12.5613,0.359914,1.29785,0.881897,0,0,0,0,0.451363,-1.37991,-0.192675,-0.363823,0.523592,-0.238196,-0.0321547,-0.451363,1.37991,0.192675,0.363823,-0.523592,0.238196,0.0321547
12.6795,-4,0.00251428,12.5613,0.361038,1.29987,0.883246,0,0,0,0,0.381216,-1.38104,-0.241396,-0.345207,0.549852,-0.230395,-0.0301312,-0.381216,1.38104,0.241396,0.345207,-0.549852,0.230395,0.0301312
12.7116,-4,0.00251428,12.5613,0.362223,1.302,0.884667,0,0,0,0,0.307303,-1.38222,-0.292732,-0.325592,0.577522,-0.222174,-0.0279991,-0.307303,1.38222,0.292732,0.325592,-0.577522,0.222174,0.0279991
12.7437,-4,0.00251428,12.5613,0.363468,1.30424,0.886161,0,0,0,0,0.229624,-1.38347,-0.346684,-0.304977,0.606602,-0.213535,-0.0257584,-0.229624,1.38347,0.346684,0.304977,-0.606602,0.213535,0.0257584
12.7758,-4,0.00251428,12.5613,0.364773,1.30659,0.887727,0,0,0,0,0.148179,-1.38477,-0.403252,-0.283363,0.637092,-0.204477,-0.023409,-0.148179,1.38477,0.403252,0.283363,-0.637092,0.204477,0.023409
12.8079,-4,0.00251428,12.5613,0.366138,1.30905,0.889366,0,0,0,0,0.0629668,-1.38614,-0.462436,-0.260749,0.668992,-0.195,-0.020951,-0.0629668,1.38614,0.462436,0.260749,-0.668992,0.195,0.020951
12.84,-4,0.00251428,12.5613,0.367552,1.31159,0.891063,0,0,0,0,-0.0252536,-1.38755,-0.52371,-0.237337,0.702018,-0.185188,-0.0184061,0.0252536,1.38755,0.52371,0.237337,-0.702018,0.185188,0.0184061
12.8721,-4,0.00251428,12.5613,0.368971,1.31415,0.892765,0,0,0,0,-0.113777,-1.38897,-0.585194,-0.213844,0.735157,-0.175343,-0.0158526,0.113777,1.38897,0.585194,0.213844,-0.735157,0.175343,0.0158526
12.9042,-4,0.00251428,12.5613,0.370389,1.3167,0.894467,0,0,0,0,-0.2023,-1.39039,-0.646677,-0.190351,0.768297,-0.165497,-0.013299,0.2023,1.39039,0.646677,0.190351,-0.768297,0.165497,0.013299
12.9363,-4,0.00251428,12.5613,0.371808,1.31925,0.89617,0,0,0,0,-0.290823,-1.39181,-0.708161,-0.166859,0.801436,-0.155652,-0.0107455,0.290823,1.39181,0.708161,0.166859,-0.801436,0.155652,0.0107455
12.9684,-4,0.00251428,12.5613,0.373227,1.32181,0.897872,0,0,0,0,-0.379346,-1.39323,-0.769645,-0.143366,0.834576,-0.145807,-0.00819194,0.379346,1.39323,0.769645,0.143366,-0.834576,0.145807,0.00819194
13.0005,-4,0.00251428,12.5613,0.374645,1.32436,0.899574,0,0,0,0,-0.467869,-1.39465,-0.831129,-0.119873,0.867715,-0.135961,-0.00563839,0.467869,1.39465,0.831129,0.119873,-0.867715,0.135961,0.00563839
13.0326,-4,0.00251428,12.5613,0.376064,1.32692,0.901277,0,0,0,0,-0.556392,-1.39606,-0.892613,-0.0963806,0.900854,-0.126116,-0.00308484,0.556392,1.39606,0.892613,0.0963806,-0.900854,0.126116,0.00308484
13.0647,-4,0.00251428,12.5613,0.377483,1.32947,0.902979,0,0,0,0,-0.644915,-1.39748,-0.954097,-0.0728879,0.933994,-0.116271,-0.000531291,0.644915,1.39748,0.954097,0.0728879,-0.933994,0.116271,0.000531291
13.0968,-4,0.00251428,12.5613,0.378901,1.33202,0.904682,0,0,0,0,-0.733438,-1.3989,-1.01558,-0.0493952,0.967133,-0.106425,0.00202226,0.733438,1.3989,1.01558,0.0493952,-0.967133,0.106425,-0.00202226
13.1289,-4,0.00251428,12.5613,0.38032,1.33458,0.906384,0,0,0,0,-0.821961,-1.40032,-1.07706,-0.0259025,1.00027,-0.0965799,0.00457581,0.821961,1.40032,1.07706,0.0259025,-1.00027,0.0965799,-0.00457581
13.161,-4,0.00251428,12.5613,0.381739,1.33713,0.908086,0,0,0,0,-0.910485,-1.40174,-1.13855,-0.00240988,1.03341,-0.0867346,0.00712936,0.910485,1.40174,1.13855,0.00240988,-1.03341,0.0867346,-0.00712936
13.1931,-4,0.00251428,12.5613,0.383157,1.33968,0.909789,0,0,0,0,-0.99901,-1.40316,-1.20003,0.0210834,1.06655,-0.076889,0.00968298,0.99901,1.40316,1.20003,-0.0210834,-1.06655,0.076889,-0.00968298
13.2253,-4,0.00251428,12.5613,0.384552,1.34219,0.911462,0,0,0,0,-1.08604,-1.40455,-1.26048,0.0441808,1.09913,-0.0672093,0.0121936,1.08604,1.40455,1.26048,-0.0441808,-1.09913,0.0672093,-0.0121936
13.2574,-4,0.00251428,12.5613,0.385887,1.3446,0.913065,0,0,0,0,-1.16937,-1.40589,-1.31836,0.0662949,1.13033,-0.0579416,0.0145973,1.16937,1.40589,1.31836,-0.0662949,-1.13033,0.0579416,-0.0145973
13.2895,-4,0.00251428,12.5613,0.387162,1.34689,0.914595,0,0,0,0,-1.24893,-1.40716,-1.37362,0.0874095,1.16011,-0.0490929,0.0168923,1.24893,1.40716,1.37362,-0.0874095,-1.16011,0.0490929,-0.0168923
13.3216,-4,0.00251428,12.5613,0.388377,1.34908,0.916053,0,0,0,0,-1.32473,-1.40838,-1.42626,0.107525,1.18849,-0.040663,0.0190788,1.32473,1.40838,1.42626,-0.107525,-1.18849,0.040663,-0.0190788
13.3537,-4,0.00251428,12.5613,0.389531,1.35116,0.917438,0,0,0,0,-1.39676,-1.40953,-1.47629,0.12664,1.21545,-0.032652,0.0211565,1.39676,1.40953,1.47629,-0.12664,-1.21545,0.032652,-0.0211565
13.3858,-4,0.00251428,12.5613,0.390625,1.35313,0.91875,0,0,0,0,-1.46502,-1.41063,-1.5237,0.144756,1.24101,-0.0250599,0.0231257,1.46502,1.41063,1.5237,-0.144756,-1.24101,0.0250599,-0.0231257
13.4179,-4,0.00251428,12.5613,0.391659,1.35499,0.919991,0,0,0,0,-1.52952,-1.41166,-1.5685,0.161873,1.26515,-0.0178866,0.0249862,1.52952,1.41166,1.5685,-0.161873,-1.26515,0.0178866,-0.0249862
13.45,-4,0.00251428,12.5613,0.392632,1.35674,0.921159,0,0,0,0,-1.59025,-1.41263,-1.61068,0.17799,1.28789,-0.0111323,0.026738,1.59025,1.41263,1.61068,-0.17799,-1.28789,0.0111323,-0.026738
13.4821,-4,0.00251428,12.5613,0.393545,1.35838,0.922254,0,0,0,0,-1.64722,-1.41355,-1.65025,0.193107,1.30921,-0.00479678,0.0283812,1.64722,1.41355,1.65025,-0.193107,-1.30921,0.00479678,-0.0283812
13.5142,-4,0.00251428,12.5613,0.394398,1.35992,0.923277,0,0,0,0,-1.70041,-1.4144,-1.6872,0.207225,1.32913,0.00111984,0.0299158,1.70041,1.4144,1.6872,-0.207225,-1.32913,-0.00111984,-0.0299158
13.5463,-4,0.00251428,12.5613,0.39519,1.36134,0.924228,0,0,0,0,-1.74985,-1.41519,-1.72153,0.220344,1.34763,0.00661758,0.0313417,1.74985,1.41519,1.72153,-0.220344,-1.34763,-0.00661758,-0.0313417
13.5784,-4,0.00251428,12.5613,0.395922,1.36266,0.925106,0,0,0,0,-1.79551,-1.41592,-1.75325,0.232463,1.36473,0.0116964,0.032659,1.79551,1.41592,1.75325,-0.232463,-1.36473,-0.0116964,-0.032659
13.6105,-4,0.00251428,12.5613,0.396593,1.36387,0.925912,0,0,0,0,-1.83741,-1.41659,-1.78235,0.243583,1.38042,0.0163564,0.0338677,1.83741,1.41659,1.78235,-0.243583,-1.38042,-0.0163564,-0.0338677
13.6426,-4,0.00251428,12.5613,0.397204,1.36497,0.926645,0,0,0,0,-1.87555,-1.4172,-1.80883,0.253703,1.39469,0.0205976,0.0349677,1.87555,1.4172,1.80883,-0.253703,-1.39469,-0.0205976,-0.0349677
13.6747,-4,0.00251428,12.5613,0.397755,1.36596,0.927306,0,0,0,0,-1.90991,-1.41776,-1.8327,0.262823,1.40756,0.0244198,0.035959,1.90991,1.41776,1.8327,-0.262823,-1.40756,-0.0244198,-0.035959
13.7068,-4,0.00251428,12.5613,0.398245,1.36684,0.927894,0,0,0,0,-1.94051,-1.41825,-1.85396,0.270944,1.41901,0.0278232,0.0368417,1.94051,1.41825,1.85396,-0.270944,-1.41901,-0.0278232,-0.0368417
13.7389,-4,0.00251428,12.5613,0.398675,1.36762,0.928411,0,0,0,0,-1.96735,-1.41868,-1.87259,0.278066,1.42906,0.0308076,0.0376158,1.96735,1.41868,1.87259,-0.278066,-1.42906,-0.0308076,-0.0376158
13.771,-4,0.00251428,12.5613,0.399045,1.36828,0.928854,0,0,0,0,-1.99042,-1.41905,-1.88862,0.284187,1.43769,0.0333733,0.0382812,1.99042,1.41905,1.88862,-0.284187,-1.43769,-0.0333733,-0.0382812
13.8031,-4,0.00251428,12.5613,0.399354,1.36884,0.929225,0,0,0,0,-2.00972,-1.41935,-1.90202,0.28931,1.44492,0.03552,0.038838,2.00972,1.41935,1.90202,-0.28931,-1.44492,-0.03552,-0.038838
13.8352,-4,0.00251428,12.5613,0.399603,1.36929,0.929524,0,0,0,0,-2.02525,-1.4196,-1.91281,0.293433,1.45074,0.0372479,0.0392862,2.02525,1.4196,1.91281,-0.293433,-1.45074,-0.0372479,-0.0392862
13.8673,-4,0.00251428,12.5613,0.399792,1.36963,0.92975,0,0,0,0,-2.03702,-1.41979,-1.92099,0.296556,1.45514,0.0385568,0.0396257,2.03702,1.41979,1.92099,-0.296556,-1.45514,-0.0385568,-0.0396257
13.8994,-4,0.00251428,12.5613,0.39992,1.36986,0.929904,0,0,0,0,-2.04503,-1.41992,-1.92655,0.29868,1.45814,0.039447,0.0398566,2.04503,1.41992,1.92655,-0.29868,-1.45814,-0.039447,-0.0398566
13.9315,-4,0.00251428,12.5613,0.399988,1.36998,0.929986,0,0,0,0,-2.04926,-1.41999,-1.92949,0.299805,1.45972,0.0399182,0.0399788,2.04926,1.41999,1.92949,-0.299805,-1.45972,-0.0399182,-0.0399788
13.9596,-4,0.00251428,12.5613,0.399995,1.36999,0.929994,0,0,0,0,-2.0499,-1.41987,-1.92987,0.299969,1.46005,0.039999,0.0399933,2.0499,1.41987,1.92987,-0.299969,-1.46005,-0.039999,-0.039999
13.9917,-4,0.00251428,12.5613,0.399881,1.36979,0.929857,0,0,0,0,-2.0475,-1.41674,-1.92682,0.299215,1.46128,0.0399762,0.0398335,2.0475,1.41674,1.92682,-0.299215,-1.46128,-0.0399762,-0.0399762
14.0239,-4,0.00251428,12.5613,0.399615,1.36931,0.929538,0,0,0,0,-2.04191,-1.40944,-1.91971,0.297457,1.46416,0.0399229,0.0394606,2.04191,1.40944,1.91971,-0.297457,-1.46416,-0.0399229,-0.0399229
14.056,-4,0.00251428,12.5613,0.399196,1.36855,0.929035,0,0,0,0,-2.03312,-1.39798,-1.90852,0.294695,1.46868,0.0398392,0.0388747,2.03312,1.39798,1.90852,-0.294695,-1.46868,-0.0398392,-0.0398392
14.0882,-4,0.00251428,12.5613,0.398625,1.36753,0.928351,0,0,0,0,-2.02113,-1.38234,-1.89327,0.290928,1.47485,0.0397251,0.0380756,2.02113,1.38234,1.89327,-0.290928,-1.47485,-0.0397251,-0.0397251
14.1203,-4,0.00251428,12.5613,0.397902,1.36622,0.927483,0,0,0,0,-2.00595,-1.36253,-1.87395,0.286156,1.48265,0.0395805,0.0370635,2.00595,1.36253,1.87395,-0.286156,-1.48265,-0.0395805,-0.0395805
14.1524,-4,0.00251428,12.5613,0.397027,1.36465,0.926433,0,0,0,0,-1.98757,-1.33855,-1.85057,0.280381,1.4921,0.0394055,0.0358383,1.98757,1.33855,1.85057,-0.280381,-1.4921,-0.0394055,-0.0394055
14.1846,-4,0.00251428,12.5613,0.396,1.3628,0.9252,0,0,0,0,-1.966,-1.3104,-1.82312,0.2736,1.5032,0.0392,0.0344,1.966,1.3104,1.82312,-0.2736,-1.5032,-0.0392,-0.0392
14.2167,-4,0.00251428,12.5613,0.39482,1.36068,0.923785,0,0,0,0,-1.94123,-1.27808,-1.7916,0.265815,1.51594,0.0389641,0.0327486,1.94123,1.27808,1.7916,-0.265815,-1.51594,-0.0389641,-0.0389641
14.2488,-4,0.00251428,12.5613,0.393489,1.35828,0.922186,0,0,0,0,-1.91326,-1.24159,-1.75602,0.257025,1.53032,0.0386977,0.0308842,1.91326,1.24159,1.75602,-0.257025,-1.53032,-0.0386977,-0.0386977
14.281,-4,0.00251428,12.5613,0.392005,1.35561,0.920406,0,0,0,0,-1.8821,-1.20093,-1.71637,0.247231,1.54635,0.038401,0.0288067,1.8821,1.20093,1.71637,-0.247231,-1.54635,-0.038401,-0.038401
14.3131,-4,0.00251428,12.5613,0.390369,1.35266,0.918442,0,0,0,0,-1.84774,-1.1561,-1.67265,0.236433,1.56402,0.0380737,0.0265161,1.84774,1.1561,1.67265,-0.236433,-1.56402,-0.0380737,-0.0380737
14.3452,-4,0.00251428,12.5613,0.38858,1.34944,0.916296,0,0,0,0,-1.81019,-1.1071,-1.62486,0.22463,1.58333,0.0377161,0.0240124,1.81019,1.1071,1.62486,-0.22463,-1.58333,-0.0377161,-0.0377161
14.3774,-4,0.00251428,12.5613,0.38664,1.34595,0.913968,0,0,0,0,-1.76943,-1.05393,-1.57301,0.211822,1.60429,0.0373279,0.0212956,1.76943,1.05393,1.57301,-0.211822,-1.60429,-0.0373279,-0.0373279
14.4095,-4,0.00251428,12.5613,0.384547,1.34218,0.911456,0,0,0,0,-1.72549,-0.996587,-1.5171,0.19801,1.62689,0.0369094,0.0183658,1.72549,0.996587,1.5171,-0.19801,-1.62689,-0.0369094,-0.0369094
14.4417,-4,0.00251428,12.5613,0.382302,1.33814,0.908762,0,0,0,0,-1.67834,-0.935075,-1.45711,0.183193,1.65114,0.0364604,0.0152228,1.67834,0.935075,1.45711,-0.183193,-1.65114,-0.0364604,-0.0364604
14.4738,-4,0.00251428,12.5613,0.379905,1.33383,0.905886,0,0,0,0,-1.628,-0.869394,-1.39306,0.167372,1.67703,0.035981,0.0118668,1.628,0.869394,1.39306,-0.167372,-1.67703,-0.035981,-0.035981
14.5059,-4,0.00251428,12.5613,0.377356,1.32924,0.902827,0,0,0,0,-1.57447,-0.799542,-1.32494,0.150547,1.70456,0.0354711,0.00829774,1.57447,0.799542,1.32494,-0.150547,-1.70456,-0.0354711,-0.0354711
14.5381,-4,0.00251428,12.5613,0.374656,1.32438,0.899588,0,0,0,0,-1.51778,-0.725585,-1.25282,0.132732,1.73371,0.0349313,0.00451896,1.51778,0.725585,1.25282,-0.132732,-1.73371,-0.0349313,-0.0349313
14.5702,-4,0.00251428,12.5613,0.371993,1.31959,0.896391,0,0,0,0,-1.46185,-0.652605,-1.18165,0.115153,1.76248,0.0343986,0.000790014,1.46185,0.652605,1.18165,-0.115153,-1.76248,-0.0343986,-0.0343986
14.6023,-4,0.00251428,12.5613,0.369482,1.31507,0.893378,0,0,0,0,-1.40911,-0.583795,-1.11455,0.0985784,1.7896,0.0338963,-0.0027258,1.40911,0.583795,1.11455,-0.0985784,-1.7896,-0.0338963,-0.0338963
14.6345,-4,0.00251428,12.5613,0.367122,1.31082,0.890547,0,0,0,0,-1.35957,-0.519156,-1.05151,0.0830083,1.81508,0.0334245,-0.00602854,1.35957,0.519156,1.05151,-0.0830083,-1.81508,-0.0334245,-0.0334245
14.6666,-4,0.00251428,12.5613,0.364916,1.30685,0.887899,0,0,0,0,-1.31323,-0.458687,-0.992544,0.0684428,1.83891,0.0329831,-0.00911819,1.31323,0.458687,0.992544,-0.0684428,-1.83891,-0.0329831,-0.0329831
14.6988,-4,0.00251428,12.5613,0.362861,1.30315,0.885433,0,0,0,0,-1.27008,-0.402388,-0.937643,0.0548818,1.8611,0.0325722,-0.0119948,1.27008,0.402388,0.937643,-0.0548818,-1.8611,-0.0325722,-0.0325722
14.7309,-4,0.00251428,12.5613,0.360958,1.29973,0.88315,0,0,0,0,-1.23013,-0.35026,-0.886808,0.0423253,1.88165,0.0321917,-0.0146583,1.23013,0.35026,0.886808,-0.0423253,-1.88165,-0.0321917,-0.0321917
14.763,-4,0.00251428,12.5613,0.359208,1.29657,0.88105,0,0,0,0,-1.19337,-0.302302,-0.84004,0.0307734,1.90055,0.0318416,-0.0171087,1.19337,0.302302,0.84004,-0.0307734,-1.90055,-0.0318416,-0.0318416
14.7952,-4,0.00251428,12.5613,0.35761,1.2937,0.879132,0,0,0,0,-1.15981,-0.258514,-0.797339,0.0202259,1.91781,0.031522,-0.019346,1.15981,0.258514,0.797339,-0.0202259,-1.91781,-0.031522,-0.031522
14.8273,-4,0.00251428,12.5613,0.356164,1.2911,0.877397,0,0,0,0,-1.12945,-0.218896,-0.758705,0.010683,1.93343,0.0312328,-0.0213703,1.12945,0.218896,0.758705,-0.010683,-1.93343,-0.0312328,-0.0312328
14.8594,-4,0.00251428,12.5613,0.35487,1.28877,0.875844,0,0,0,0,-1.10228,-0.183449,-0.724137,0.00214459,1.9474,0.0309741,-0.0231815,1.10228,0.183449,0.724137,-0.00214459,-1.9474,-0.0309741,-0.0309741
14.8916,-4,0.00251428,12.5613,0.353729,1.28671,0.874475,0,0,0,0,-1.07831,-0.152172,-0.693636,-0.0053893,1.95973,0.0307458,-0.0247795,1.07831,0.152172,0.693636,0.0053893,-1.95973,-0.0307458,-0.0307458
14.9237,-4,0.00251428,12.5613,0.35274,1.28493,0.873288,0,0,0,0,-1.05753,-0.125065,-0.667202,-0.0119187,1.97041,0.0305479,-0.0261646,1.05753,0.125065,0.667202,0.0119187,-1.97041,-0.0305479,-0.0305479
14.9558,-4,0.00251428,12.5613,0.351902,1.28342,0.872283,0,0,0,0,-1.03995,-0.102128,-0.644835,-0.0174435,1.97945,0.0303805,-0.0273365,1.03995,0.102128,0.644835,0.0174435,-1.97945,-0.0303805,-0.0303805
14.988,-4,0.00251428,12.5613,0.351218,1.28219,0.871461,0,0,0,0,-1.02557,-0.0833622,-0.626534,-0.0219639,1.98685,0.0302435,-0.0282954,1.02557,0.0833622,0.626534,0.0219639,-1.98685,-0.0302435,-0.0302435
15.0201,-4,0.00251428,12.5613,0.350685,1.28123,0.870822,0,0,0,0,-1.01438,-0.0687662,-0.6123,-0.0254797,1.9926,0.030137,-0.0290411,1.01438,0.0687662,0.6123,0.0254797,-1.9926,-0.030137,-0.030137
15.0523,-4,0.00251428,12.5613,0.350304,1.28055,0.870365,0,0,0,0,-1.00639,-0.0583405,-0.602134,-0.027991,1.99671,0.0300609,-0.0295738,1.00639,0.0583405,0.602134,0.027991,-1.99671,-0.0300609,-0.0300609
15.0844,-4,0.00251428,12.5613,0.350076,1.28014,0.870091,0,0,0,0,-1.0016,-0.0520851,-0.596033,-0.0294977,1.99918,0.0300152,-0.0298935,1.0016,0.0520851,0.596033,0.0294977,-1.99918,-0.0300152,-0.0300152
15.1165,-4,0.00251428,12.5613,0.35,1.28,0.87,0,0,0,0,-1,-0.05,-0.594,-0.03,2,0.03,-0.03,1,0.05,0.594,0.03,-2,-0.03,-0.03
15.1446,-4,0.00251428,12.5731,0.35,1.28,0.87,0.00057397,0,-0.000978692,0,-0.999588,-0.0510523,-0.591576,-0.0288521,1.99724,0.0298572,-0.029139,0.99869,0.0509493,0.594085,0.0314349,-1.99956,-0.0299985,-0.0306873
15.1767,-4,0.00251428,12.5866,0.35,1.28,0.87,0.00263557,0,-0.00449399,0,-0.998108,-0.0548319,-0.58287,-0.0247289,1.98733,0.0293445,-0.0260466,0.993985,0.0543588,0.594392,0.0365889,-1.99797,-0.0299932,-0.0331559
15.2088,-4,0.00251428,12.6001,0.35,1.28,0.87,0.00619653,0,-0.0105659,0,-0.995551,-0.0613603,-0.567832,-0.0176069,1.97021,0.0284588,-0.0207052,0.985859,0.0602481,0.594922,0.0454913,-1.99523,-0.0299841,-0.0374199
15.2409,-4,0.00251428,12.6136,0.35,1.28,0.87,0.0112568,0,-0.0191943,0,-0.991918,-0.0706375,-0.546462,-0.00748634,1.94588,0.0272002,-0.0131148,0.974311,0.0686171,0.595674,0.0581421,-1.99134,-0.0299711,-0.0434793
15.273,-4,0.00251428,12.627,0.35,1.28,0.87,0.0178165,0,-0.0303794,0,-0.987209,-0.0826636,-0.51876,0.00563297,1.91434,0.0255687,-0.00327527,0.959342,0.0794657,0.59665,0.0745412,-1.9863,-0.0299543,-0.0513341
15.3051,-4,0.00251428,12.6405,0.35,1.28,0.87,0.0258755,0,-0.044121,0,-0.981423,-0.0974384,-0.484726,0.021751,1.8756,0.0235643,0.00881323,0.940951,0.0927941,0.597848,0.0946887,-1.9801,-0.0299337,-0.0609842
15.3371,-4,0.00251428,12.654,0.35,1.28,0.87,0.0354338,0,-0.0604192,0,-0.97456,-0.114962,-0.44436,0.0408677,1.82965,0.021187,0.0231508,0.919138,0.108602,0.59927,0.118585,-1.97274,-0.0299091,-0.0724297
15.3692,-4,0.00251428,12.6675,0.35,1.28,0.87,0.0464915,0,-0.079274,0,-0.966621,-0.135234,-0.397663,0.0629831,1.77648,0.0184367,0.0397373,0.893904,0.12689,0.600914,0.146229,-1.96424,-0.0298808,-0.0856706
15.4013,-4,0.00251428,12.681,0.35,1.28,0.87,0.0590486,0,-0.100685,0,-0.957606,-0.158256,-0.344633,0.0880972,1.71611,0.0153136,0.0585729,0.865248,0.147657,0.602782,0.177621,-1.95458,-0.0298486,-0.100707
15.4334,-4,0.00251428,12.6944,0.35,1.28,0.87,0.073105,0,-0.124653,0,-0.947514,-0.184026,-0.285272,0.11621,1.64853,0.0118175,0.0796575,0.833171,0.170904,0.604872,0.212762,-1.94377,-0.0298126,-0.117539
15.4655,-4,0.00251428,12.7079,0.35,1.28,0.87,0.0886642,0,-0.151184,0,-0.936344,-0.212551,-0.219564,0.147328,1.57373,0.00794761,0.102996,0.797664,0.196637,0.607186,0.251661,-1.9318,-0.0297727,-0.13617
15.4976,-4,0.00251428,12.7214,0.35,1.28,0.87,0.105281,0,-0.179517,0,-0.924414,-0.243015,-0.149391,0.180562,1.49384,0.00381477,0.127921,0.759744,0.224118,0.609657,0.293202,-1.91901,-0.02973,-0.156067
15.5297,-4,0.00251428,12.7349,0.35,1.28,0.87,0.121968,0,-0.20797,0,-0.912434,-0.273607,-0.0789214,0.213935,1.41362,-0.000335535,0.152951,0.721664,0.251716,0.612139,0.334919,-1.90618,-0.0296873,-0.176048
15.5618,-4,0.00251428,12.7483,0.35,1.28,0.87,0.138654,0,-0.236424,0,-0.900453,-0.3042,-0.00845157,0.247309,1.33339,-0.00448585,0.177982,0.683583,0.279313,0.61462,0.376636,-1.89334,-0.0296445,-0.19603
15.5939,-4,0.00251428,12.7618,0.35,1.28,0.87,0.155341,0,-0.264877,0,-0.888473,-0.334792,0.0620182,0.280683,1.25317,-0.00863617,0.203012,0.645503,0.306911,0.617102,0.418353,-1.88051,-0.0296017,-0.216011
15.626,-4,0.00251428,12.7753,0.35,1.28,0.87,0.172028,0,-0.29333,0,-0.876493,-0.365385,0.132488,0.314056,1.17294,-0.0127865,0.228042,0.607423,0.334508,0.619584,0.46007,-1.86767,-0.0295589,-0.235993
15.658,-4,0.00251428,12.7888,0.35,1.28,0.87,0.188715,0,-0.321783,0,-0.864512,-0.395977,0.202958,0.34743,1.09272,-0.0169368,0.253072,0.569343,0.362106,0.622065,0.501787,-1.85483,-0.0295161,-0.255974
15.6901,-4,0.00251428,12.8022,0.35,1.28,0.87,0.205402,0,-0.350236,0,-0.852532,-0.42657,0.273428,0.380804,1.01249,-0.0210871,0.278103,0.531263,0.389703,0.624547,0.543505,-1.842,-0.0294733,-0.275956
15.7222,-4,0.00251428,12.8157,0.35,1.28,0.87,0.222089,0,-0.37869,0,-0.840552,-0.457163,0.343897,0.414177,0.932266,-0.0252374,0.303133,0.493182,0.4173,0.627029,0.585222,-1.82916,-0.0294305,-0.295937
15.7543,-4,0.00251428,12.8292,0.35,1.28,0.87,0.238775,0,-0.407143,0,-0.828571,-0.487755,0.414367,0.447551,0.852041,-0.0293878,0.328163,0.455102,0.444898,0.62951,0.626939,-1.81633,-0.0293878,-0.315918
15.7864,-4,0.00251428,12.8427,0.35,1.28,0.87,0.255462,0,-0.435596,0,-0.816591,-0.518348,0.484837,0.480925,0.771816,-0.0335381,0.353194,0.417022,0.472495,0.631992,0.668656,-1.80349,-0.029345,-0.3359
15.8185,-4,0.00251428,12.8562,0.35,1.28,0.87,0.272149,0,-0.464049,0,-0.804611,-0.54894,0.555307,0.514298,0.69159,-0.0376884,0.378224,0.378942,0.500093,0.634473,0.710373,-1.79065,-0.0293022,-0.355881
15.8506,-4,0.00251428,12.8696,0.35,1.28,0.87,0.288836,0,-0.492502,0,-0.792631,-0.579533,0.625777,0.547672,0.611365,-0.0418387,0.403254,0.340861,0.52769,0.636955,0.75209,-1.77782,-0.0292594,-0.375863
15.8827,-4,0.00251428,12.8831,0.35,1.28,0.87,0.305523,0,-0.520956,0,-0.78065,-0.610125,0.696247,0.581046,0.53114,-0.045989,0.428284,0.302781,0.555288,0.639437,0.793807,-1.76498,-0.0292166,-0.395844
15.9148,-4,0.00251428,12.8966,0.35,1.28,0.87,0.32221,0,-0.549409,0,-0.76867,-0.640718,0.766716,0.614419,0.450915,-0.0501393,0.453315,0.264701,0.582885,0.641918,0.835524,-1.75215,-0.0291738,-0.415825
15.9469,-4,0.00251428,12.9101,0.35,1.28,0.87,0.338897,0,-0.577862,0,-0.75669,-0.67131,0.837186,0.647793,0.37069,-0.0542897,0.478345,0.226621,0.610483,0.6444,0.877241,-1.73931,-0.029131,-0.435807
15.9789,-4,0.00251428,12.9235,0.35,1.28,0.87,0.355583,0,-0.606315,0,-0.744709,-0.701903,0.907656,0.681167,0.290465,-0.05844,0.503375,0.18854,0.63808,0.646882,0.918958,-1.72647,-0.0290882,-0.455788
16.011,-4,0.00251428,12.937,0.35,1.28,0.87,0.37227,0,-0.634768,0,-0.732729,-0.732495,0.978126,0.71454,0.210239,-0.0625903,0.528405,0.15046,0.665678,0.649363,0.960676,-1.71364,-0.0290455,-0.47577
16.0431,-4,0.00251428,12.9505,0.35,1.28,0.87,0.388957,0,-0.663222,0,-0.720749,-0.763088,1.0486,0.747914,0.130014,-0.0667406,0.553436,0.11238,0.693275,0.651845,1.00239,-1.7008,-0.0290027,-0.495751
16.0752,-4,0.00251428,12.964,0.35,1.28,0.87,0.405644,0,-0.691675,0,-0.708768,-0.79368,1.11907,0.781288,0.0497889,-0.0708909,0.578466,0.0742998,0.720873,0.654327,1.04411,-1.68797,-0.0289599,-0.515733
16.1073,-4,0.00251428,12.9775,0.35,1.28,0.87,0.422331,0,-0.720128,0,-0.696788,-0.824273,1.18954,0.814661,-0.0304363,-0.0750412,0.603496,0.0362196,0.74847,0.656808,1.08583,-1.67513,-0.0289171,-0.535714
16.1394,-4,0.00251428,12.9909,0.35,1.28,0.87,0.439018,0,-0.748581,0,-0.684808,-0.854866,1.26001,0.848035,-0.110661,-0.0791916,0.628526,-0.00186064,0.776068,0.65929,1.12754,-1.66229,-0.0288743,-0.555695
16.1715,-4,0.00251428,13.0044,0.35,1.28,0.87,0.455704,0,-0.777034,0,-0.672828,-0.885458,1.33047,0.881409,-0.190887,-0.0833419,0.653557,-0.0399409,0.803665,0.661771,1.16926,-1.64946,-0.0288315,-0.575677
16.2036,-4,0.00251428,13.0179,0.35,1.28,0.87,0.472391,0,-0.805488,0,-0.660847,-0.916051,1.40094,0.914783,-0.271112,-0.0874922,0.678587,-0.0780211,0.831262,0.664253,1.21098,-1.63662,-0.0287887,-0.595658
16.2357,-4,0.00251428,13.0314,0.35,1.28,0.87,0.489078,0,-0.833941,0,-0.648867,-0.946643,1.47141,0.948156,-0.351337,-0.0916425,0.703617,-0.116101,0.85886,0.666735,1.2527,-1.62379,-0.028746,-0.61564
16.2678,-4,0.00251428,13.0448,0.35,1.28,0.87,0.505765,0,-0.862394,0,-0.636887,-0.977236,1.54188,0.98153,-0.431562,-0.0957928,0.728647,-0.154182,0.886457,0.669216,1.29441,-1.61095,-0.0287032,-0.635621
16.2999,-4,0.00251428,13.0583,0.35,1.28,0.87,0.522452,0,-0.890847,0,-0.624906,-1.00783,1.61235,1.0149,-0.511787,-0.0999431,0.753678,-0.192262,0.914055,0.671698,1.33613,-1.59811,-0.0286604,-0.655603
16.3319,-4,0.00251428,13.0718,0.35,1.28,0.87,0.539139,0,-0.9193,0,-0.612926,-1.03842,1.68282,1.04828,-0.592013,-0.104093,0.778708,-0.230342,0.941652,0.67418,1.37785,-1.58528,-0.0286176,-0.675584
16.364,-4,0.00251428,13.0853,0.35,1.28,0.87,0.555825,0,-0.947754,0,-0.600946,-1.06901,1.75329,1.08165,-0.672238,-0.108244,0.803738,-0.268422,0.96925,0.676661,1.41956,-1.57244,-0.0285748,-0.695565
16.3961,-4,0.00251428,13.0988,0.35,1.28,0.87,0.572512,0,-0.976207,0,-0.588966,-1.09961,1.82376,1.11502,-0.752463,-0.112394,0.828768,-0.306502,0.996847,0.679143,1.46128,-1.55961,-0.028532,-0.715547
16.4282,-4,0.00251428,13.1122,0.35,1.28,0.87,0.589199,0,-1.00466,0,-0.576985,-1.1302,1.89423,1.1484,-0.832688,-0.116544,0.853799,-0.344583,1.02444,0.681624,1.503,-1.54677,-0.0284892,-0.735528
16.4603,-4,0.00251428,13.1257,0.35,1.28,0.87,0.605886,0,-1.03311,0,-0.565005,-1.16079,1.9647,1.18177,-0.912913,-0.120695,0.878829,-0.382663,1.05204,0.684106,1.54471,-1.53393,-0.0284464,-0.75551
16.4924,-4,0.00251428,13.1392,0.35,1.28,0.87,0.622573,0,-1.06157,0,-0.553025,-1.19138,2.03517,1.21515,-0.993139,-0.124845,0.903859,-0.420743,1.07964,0.686588,1.58643,-1.5211,-0.0284037,-0.775491
16.5245,-4,0.00251428,13.1527,0.35,1.28,0.87,0.63926,0,-1.09002,0,-0.541044,-1.22198,2.10564,1.24852,-1.07336,-0.128995,0.92889,-0.458823,1.10724,0.689069,1.62815,-1.50826,-0.0283609,-0.795472
16.5566,-4,0.00251428,13.1661,0.35,1.28,0.87,0.655947,0,-1.11847,0,-0.529064,-1.25257,2.17611,1.28189,-1.15359,-0.133146,0.95392,-0.496904,1.13483,0.691551,1.66987,-1.49543,-0.0283181,-0.815454
16.5887,-4,0.00251428,13.1796,0.35,1.28,0.87,0.672633,0,-1.14693,0,-0.517084,-1.28316,2.24658,1.31527,-1.23381,-0.137296,0.97895,-0.534984,1.16243,0.694033,1.71158,-1.48259,-0.0282753,-0.835435
16.6208,-4,0.00251428,13.1931,0.35,1.28,0.87,0.689287,0,-1.17532,0,-0.505127,-1.31369,2.31691,1.34857,-1.31388,-0.141438,1.00393,-0.572989,1.18998,0.696509,1.75322,-1.46978,-0.0282326,-0.855378
16.6528,-4,0.00251428,13.2066,0.35,1.28,0.87,0.705032,0,-1.20217,0,-0.493823,-1.34256,2.38341,1.38006,-1.38958,-0.145354,1.02755,-0.60892,1.21602,0.698851,1.79258,-1.45767,-0.0281922,-0.874231
16.6849,-4,0.00251428,13.22,0.35,1.28,0.87,0.719276,0,-1.22646,0,-0.483596,-1.36867,2.44356,1.40855,-1.45806,-0.148897,1.04891,-0.641426,1.23957,0.700969,1.82819,-1.44671,-0.0281557,-0.891287
16.717,-4,0.00251428,13.2335,0.35,1.28,0.87,0.732021,0,-1.24819,0,-0.474447,-1.39204,2.49738,1.43404,-1.51933,-0.152067,1.06803,-0.670509,1.26065,0.702865,1.86005,-1.43691,-0.028123,-0.906548
16.7491,-4,0.00251428,13.247,0.35,1.28,0.87,0.743266,0,-1.26736,0,-0.466373,-1.41265,2.54487,1.45653,-1.57339,-0.154864,1.0849,-0.696171,1.27925,0.704537,1.88816,-1.42826,-0.0280942,-0.920013
16.7812,-4,0.00251428,13.2605,0.35,1.28,0.87,0.753012,0,-1.28398,0,-0.459376,-1.43052,2.58603,1.47602,-1.62025,-0.157288,1.09952,-0.718411,1.29537,0.705986,1.91253,-1.42076,-0.0280692,-0.931683
16.8133,-4,0.00251428,13.274,0.35,1.28,0.87,0.761258,0,-1.29804,0,-0.453456,-1.44564,2.62085,1.49252,-1.65989,-0.159339,1.11189,-0.73723,1.309,0.707213,1.93315,-1.41442,-0.0280481,-0.941558
16.8454,-4,0.00251428,13.2874,0.35,1.28,0.87,0.768005,0,-1.30955,0,-0.448612,-1.45801,2.64935,1.50601,-1.69233,-0.161017,1.12201,-0.752627,1.32016,0.708216,1.95001,-1.40923,-0.0280308,-0.949637
16.8775,-4,0.00251428,13.3009,0.35,1.28,0.87,0.773253,0,-1.3185,0,-0.444844,-1.46763,2.67151,1.51651,-1.71756,-0.162322,1.12988,-0.764603,1.32884,0.708997,1.96313,-1.40519,-0.0280173,-0.955921
16.9096,-4,0.00251428,13.3144,0.35,1.28,0.87,0.777001,0,-1.32489,0,-0.442153,-1.4745,2.68734,1.524,-1.73558,-0.163254,1.1355,-0.773157,1.33504,0.709554,1.9725,-1.40231,-0.0280077,-0.960409
16.9417,-4,0.00251428,13.3279,0.35,1.28,0.87,0.77925,0,-1.32872,0,-0.440538,-1.47863,2.69683,1.5285,-1.7464,-0.163814,1.13888,-0.778289,1.33876,0.709889,1.97813,-1.40058,-0.0280019,-0.963102
16.9737,-4,0.00251428,13.3413,0.35,1.28,0.87,0.78,0,-1.33,0,-0.44,-1.48,2.7,1.53,-1.75,-0.164,1.14,-0.78,1.34,0.71,1.98,-1.4,-0.028,-0.964
17.0018,-4,0.00251428,13.3413,0.35,1.28,0.87,0.78,0,-1.33,0,-0.43969,-1.47999,2.69837,1.5284,-1.7483,-0.163936,1.13996,-0.780648,1.33859,0.709955,1.97982,-1.40023,-0.0279461,-0.964282
17.034,-4,0.00251428,13.3413,0.35,1.28,0.87,0.78,0,-1.33,0,-0.438578,-1.47993,2.69253,1.52267,-1.74219,-0.163705,1.13982,-0.782977,1.33354,0.709794,1.97918,-1.40108,-0.0277527,-0.965296
17.0661,-4,0.00251428,13.3413,0.35,1.28,0.87,0.78,0,-1.33,0,-0.436656,-1.47984,2.68245,1.51277,-1.73164,-0.163305,1.13957,-0.786999,1.32482,0.709515,1.97806,-1.40253,-0.0274185,-0.967047
17.0982,-4,0.00251428,13.3413,0.35,1.28,0.87,0.78,0,-1.33,0,-0.433926,-1.47971,2.66811,1.4987,-1.71665,-0.162738,1.13922,-0.792715,1.31242,0.70912,1.97648,-1.4046,-0.0269437,-0.969536
17.1303,-4,0.00251428,13.3413,0.35,1.28,0.87,0.78,0,-1.33,0,-0.430387,-1.47954,2.64953,1.48046,-1.69721,-0.162003,1.13876,-0.800125,1.29634,0.708607,1.97443,-1.40728,-0.0263281,-0.972762
17.1625,-4,0.00251428,13.3413,0.35,1.28,0.87,0.78,0,-1.33,0,-0.426038,-1.47933,2.62671,1.45805,-1.67333,-0.1611,1.1382,-0.809228,1.2766,0.707977,1.97191,-1.41057,-0.0255718,-0.976725
17.1946,-4,0.00251428,13.3413,0.35,1.28,0.87,0.78,0,-1.33,0,-0.420881,-1.47908,2.59963,1.43148,-1.64501,-0.160028,1.13754,-0.820024,1.25318,0.707229,1.96892,-1.41447,-0.0246749,-0.981426
17.2267,-4,0.00251428,13.3413,0.35,1.28,0.87,0.78,0,-1.33,0,-0.414914,-1.47879,2.56831,1.40073,-1.61225,-0.158789,1.13677,-0.832515,1.22608,0.706364,1.96546,-1.41899,-0.0236372,-0.986864
17.2588,-4,0.00251428,13.3413,0.35,1.28,0.87,0.78,0,-1.33,0,-0.408139,-1.47846,2.53274,1.36582,-1.57504,-0.157381,1.1359,-0.846699,1.19532,0.705382,1.96153,-1.42411,-0.0224589,-0.99304
17.291,-4,0.00251428,13.3413,0.35,1.28,0.87,0.78,0,-1.33,0,-0.400554,-1.47809,2.49292,1.32674,-1.5334,-0.155806,1.13492,-0.862576,1.16087,0.704283,1.95713,-1.42985,-0.0211398,-0.999952
17.3231,-4,0.00251428,13.3413,0.35,1.28,0.87,0.78,0,-1.33,0,-0.392161,-1.47769,2.44886,1.28348,-1.48731,-0.154062,1.13384,-0.880147,1.12276,0.703067,1.95227,-1.43621,-0.0196801,-1.0076
17.3552,-4,0.00251428,13.3413,0.35,1.28,0.87,0.78,0,-1.33,0,-0.382958,-1.47724,2.40055,1.23606,-1.43677,-0.152151,1.13265,-0.899412,1.08097,0.701733,1.94693,-1.44317,-0.0180796,-1.01599
17.3873,-4,0.00251428,13.3413,0.35,1.28,0.87,0.78,0,-1.33,0,-0.372946,-1.47676,2.348,1.18447,-1.3818,-0.150071,1.13136,-0.92037,1.03551,0.700282,1.94113,-1.45075,-0.0163385,-1.02511
17.4194,-4,0.00251428,13.3413,0.35,1.28,0.87,0.78,0,-1.33,0,-0.362126,-1.47624,2.29119,1.12872,-1.32238,-0.147823,1.12997,-0.943022,0.986368,0.698714,1.93486,-1.45894,-0.0144567,-1.03498
17.4516,-4,0.00251428,13.3413,0.35,1.28,0.87,0.78,0,-1.33,0,-0.350496,-1.47568,2.23014,1.06879,-1.25852,-0.145407,1.12847,-0.967367,0.933557,0.697028,1.92811,-1.46774,-0.0124341,-1.04558
17.4837,-4,0.00251428,13.3413,0.35,1.28,0.87,0.78,0,-1.33,0,-0.338057,-1.47508,2.16484,1.00469,-1.19022,-0.142824,1.12687,-0.993406,0.877073,0.695226,1.9209,-1.47715,-0.0102709,-1.05691
17.5158,-4,0.00251428,13.3413,0.35,1.28,0.87,0.78,0,-1.33,0,-0.32481,-1.47444,2.0953,0.936427,-1.11747,-0.140072,1.12516,-1.02114,0.816914,0.693306,1.91322,-1.48718,-0.00796693,-1.06899
17.5479,-4,0.00251428,13.3413,0.35,1.28,0.87,0.78,0,-1.33,0,-0.310753,-1.47376,2.02151,0.863993,-1.04029,-0.137152,1.12335,-1.05057,0.753082,0.691269,1.90507,-1.49782,-0.00552228,-1.0818
17.5801,-4,0.00251428,13.3413,0.35,1.28,0.87,0.78,0,-1.33,0,-0.295898,-1.47304,1.94352,0.787444,-0.958714,-0.134066,1.12144,-1.08166,0.685622,0.689116,1.89646,-1.50906,-0.00293873,-1.09534
17.6122,-4,0.00251428,13.3413,0.35,1.28,0.87,0.78,0,-1.33,0,-0.280686,-1.4723,1.86367,0.709059,-0.875185,-0.130906,1.11948,-1.11351,0.616546,0.686911,1.88764,-1.52058,-0.000293237,-1.1092
17.6443,-4,0.00251428,13.3413,0.35,1.28,0.87,0.78,0,-1.33,0,-0.265472,-1.47157,1.7838,0.630663,-0.791644,-0.127745,1.11752,-1.14536,0.547459,0.684706,1.87882,-1.53209,0.00235263,-1.12307
17.6764,-4,0.00251428,13.3413,0.35,1.28,0.87,0.78,0,-1.33,0,-0.250259,-1.47083,1.70393,0.552267,-0.708103,-0.124585,1.11556,-1.1772,0.478373,0.682501,1.87001,-1.5436,0.00499848,-1.13694
17.7085,-4,0.00251428,13.3413,0.35,1.28,0.87,0.78,0,-1.33,0,-0.235045,-1.4701,1.62407,0.473871,-0.624563,-0.121425,1.1136,-1.20905,0.409287,0.680296,1.86119,-1.55512,0.00764434,-1.1508
17.7407,-4,0.00251428,13.3413,0.35,1.28,0.87,0.78,0,-1.33,0,-0.219831,-1.46936,1.5442,0.395475,-0.541022,-0.118264,1.11164,-1.2409,0.3402,0.678091,1.85237,-1.56663,0.0102902,-1.16467
17.7728,-4,0.00251428,13.3413,0.35,1.28,0.87,0.78,0,-1.33,0,-0.204618,-1.46863,1.46434,0.31708,-0.457482,-0.115104,1.10968,-1.27275,0.271114,0.675887,1.84355,-1.57815,0.0129361,-1.17854
17.8049,-4,0.00251428,13.3413,0.35,1.28,0.87,0.78,0,-1.33,0,-0.189404,-1.46789,1.38447,0.238684,-0.373941,-0.111944,1.10772,-1.3046,0.202028,0.673682,1.83473,-1.58966,0.0155819,-1.1924
17.837,-4,0.00251428,13.3413,0.35,1.28,0.87,0.78,0,-1.33,0,-0.17419,-1.46716,1.30461,0.160288,-0.290401,-0.108783,1.10576,-1.33645,0.132941,0.671477,1.82591,-1.60118,0.0182278,-1.20627
17.8692,-4,0.00251428,13.3413,0.35,1.28,0.87,0.78,0,-1.33,0,-0.158977,-1.46642,1.22474,0.0818921,-0.20686,-0.105623,1.1038,-1.36829,0.0638549,0.669272,1.81709,-1.61269,0.0208736,-1.22013
17.9013,-4,0.00251428,13.3413,0.35,1.28,0.87,0.78,0,-1.33,0,-0.143763,-1.46569,1.14487,0.00349623,-0.123319,-0.102463,1.10184,-1.40014,-0.00523145,0.667067,1.80827,-1.62421,0.0235195,-1.234
17.9334,-4,0.00251428,13.3413,0.35,1.28,0.87,0.78,0,-1.33,0,-0.128549,-1.46495,1.06501,-0.0748996,-0.0397788,-0.0993025,1.09988,-1.43199,-0.0743178,0.664862,1.79945,-1.63572,0.0261654,-1.24787
17.9655,-4,0.00251428,13.3413,0.35,1.28,0.87,0.78,0,-1.33,0,-0.113335,-1.46422,0.985143,-0.153295,0.0437617,-0.0961422,1.09792,-1.46384,-0.143404,0.662657,1.79063,-1.64723,0.0288112,-1.26173
17.9976,-4,0.00251428,13.3413,0.35,1.28,0.87,0.78,0,-1.33,0,-0.0981218,-1.46348,0.905277,-0.231691,0.127302,-0.0929818,1.09596,-1.49569,-0.21249,0.660452,1.78181,-1.65875,0.0314571,-1.2756
18.0298,-4,0.00251428,13.3413,0.35,1.28,0.87,0.78,0,-1.33,0,-0.0829081,-1.46275,0.825411,-0.310087,0.210843,-0.0898215,1.094,-1.52754,-0.281577,0.658248,1.77299,-1.67026,0.0341029,-1.28947
18.0619,-4,0.00251428,13.3413,0.35,1.28,0.87,0.78,0,-1.33,0,-0.0676944,-1.46201,0.745545,-0.388483,0.294383,-0.0866612,1.09204,-1.55938,-0.350663,0.656043,1.76417,-1.68178,0.0367488,-1.30333
18.094,-4,0.00251428,13.3413,0.35,1.28,0.87,0.78,0,-1.33,0,-0.0524807,-1.46128,0.66568,-0.466879,0.377924,-0.0835008,1.09008,-1.59123,-0.419749,0.653838,1.75535,-1.69329,0.0393947,-1.3172
18.1261,-4,0.00251428,13.3413,0.35,1.28,0.87,0.78,0,-1.33,0,-0.037267,-1.46054,0.585814,-0.545275,0.461465,-0.0803405,1.08812,-1.62308,-0.488836,0.651633,1.74653,-1.70481,0.0420405,-1.33106
18.1583,-4,0.00251428,13.3413,0.35,1.28,0.87,0.78,0,-1.33,0,-0.0220533,-1.45981,0.505948,-0.623671,0.545005,-0.0771802,1.08616,-1.65493,-0.557922,0.649428,1.73771,-1.71632,0.0446864,-1.34493
18.1904,-4,0.00251428,13.3413,0.35,1.28,0.87,0.78,0,-1.33,0,-0.00683962,-1.45907,0.426082,-0.702066,0.628546,-0.0740198,1.0842,-1.68678,-0.627008,0.647223,1.72889,-1.72783,0.0473322,-1.3588
18.2225,-4,0.00251428,13.3413,0.35,1.28,0.87,0.78,0,-1.33,0,0.00837407,-1.45834,0.346217,-0.780462,0.712086,-0.0708595,1.08224,-1.71863,-0.696095,0.645018,1.72007,-1.73935,0.0499781,-1.37266
18.2546,-4,0.00251428,13.3413,0.35,1.28,0.87,0.78,0,-1.33,0,0.0235878,-1.4576,0.266351,-0.858858,0.795627,-0.0676992,1.08028,-1.75047,-0.765181,0.642813,1.71125,-1.75086,0.052624,-1.38653
18.2867,-4,0.00251428,13.3413,0.35,1.28,0.87,0.78,0,-1.33,0,0.0387924,-1.45687,0.186533,-0.937207,0.879117,-0.0645407,1.07832,-1.7823,-0.834226,0.64061,1.70244,-1.76237,0.0552682,-1.40039
18.3189,-4,0.00251428,13.3413,0.35,1.28,0.87,0.78,0,-1.33,0,0.0535544,-1.45616,0.109038,-1.01328,0.960178,-0.0614742,1.07642,-1.81321,-0.901262,0.63847,1.69388,-1.77354,0.0578355,-1.41384
18.351,-4,0.00251428,13.3413,0.35,1.28,0.87,0.78,0,-1.33,0,0.06751,-1.45548,0.0357768,-1.08519,1.03681,-0.0585752,1.07462,-1.84242,-0.964635,0.636448,1.68579,-1.78411,0.0602626,-1.42656
18.3831,-4,0.00251428,13.3413,0.35,1.28,0.87,0.78,0,-1.33,0,0.0806565,-1.45485,-0.0332372,-1.15293,1.109,-0.0558443,1.07293,-1.86994,-1.02433,0.634543,1.67817,-1.79406,0.062549,-1.43854
18.4152,-4,0.00251428,13.3413,0.35,1.28,0.87,0.78,0,-1.33,0,0.0929941,-1.45425,-0.0980042,-1.21651,1.17675,-0.0532814,1.07134,-1.89577,-1.08036,0.632754,1.67102,-1.80339,0.0646946,-1.44979
18.4474,-4,0.00251428,13.3413,0.35,1.28,0.87,0.78,0,-1.33,0,0.104523,-1.45369,-0.158524,-1.27591,1.24005,-0.0508866,1.06985,-1.9199,-1.13271,0.631084,1.66433,-1.81212,0.0666996,-1.4603
18.4795,-4,0.00251428,13.3413,0.35,1.28,0.87,0.78,0,-1.33,0,0.115242,-1.45318,-0.214797,-1.33115,1.29891,-0.0486599,1.06847,-1.94234,-1.18139,0.62953,1.65812,-1.82023,0.0685638,-1.47007
18.5116,-4,0.00251428,13.3413,0.35,1.28,0.87,0.78,0,-1.33,0,0.125153,-1.4527,-0.266823,-1.38222,1.35333,-0.0466012,1.06719,-1.96309,-1.22639,0.628094,1.65238,-1.82773,0.0702874,-1.4791
