xyodfish/robot_kinematic_viewer/config/trajectories/galbot_g1_dance_pure.csv
time,chassis_x,chassis_y,chassis_yaw,leg_joint1,leg_joint2,leg_joint3,leg_joint4,leg_joint5,head_joint1,head_joint2,left_arm_joint1,left_arm_joint2,left_arm_joint3,left_arm_joint4,left_arm_joint5,left_arm_joint6,left_arm_joint7,right_arm_joint1,right_arm_joint2,right_arm_joint3,right_arm_joint4,right_arm_joint5,right_arm_joint6,right_arm_joint7
0,0,0,0,0.06,0.22,0.14,0,0,0,0,0,0,0,0,0,0,0,0,0,0,0,0,0,0
0.0320297,0,0,0,0.0606665,0.222436,0.141678,0,0,0,0,0,0,0,0,0,0,0,0,0,0,0,0,0,0
0.0640595,0,0,0,0.0626659,0.229744,0.146711,0,0,0,0,0,0,0,0,0,0,0,0,0,0,0,0,0,0
0.0960892,0,0,0,0.0659983,0.241925,0.155099,0,0,0,0,0,0,0,0,0,0,0,0,0,0,0,0,0,0
0.128119,0,0,0,0.0706636,0.258977,0.166843,0,0,0,0,0,0,0,0,0,0,0,0,0,0,0,0,0,0
0.160149,0,0,0,0.0766619,0.280902,0.181942,0,0,0,0,0,0,0,0,0,0,0,0,0,0,0,0,0,0
0.192178,0,0,0,0.0839931,0.307699,0.200396,0,0,0,0,0,0,0,0,0,0,0,0,0,0,0,0,0,0
0.224208,0,0,0,0.0926573,0.339368,0.222206,0,0,0,0,0,0,0,0,0,0,0,0,0,0,0,0,0,0
0.256238,0,0,0,0.102654,0.375909,0.247371,0,0,0,0,0,0,0,0,0,0,0,0,0,0,0,0,0,0
0.288268,0,0,0,0.113984,0.417323,0.275892,0,0,0,0,0,0,0,0,0,0,0,0,0,0,0,0,0,0
0.320297,0,0,0,0.126648,0.463608,0.307768,0,0,0,0,0,0,0,0,0,0,0,0,0,0,0,0,0,0
0.352327,0,0,0,0.140643,0.514766,0.342999,0,0,0,0,0,0,0,0,0,0,0,0,0,0,0,0,0,0
0.384357,0,0,0,0.155972,0.570796,0.381586,0,0,0,0,0,0,0,0,0,0,0,0,0,0,0,0,0,0
0.416387,0,0,0,0.172634,0.631698,0.423528,0,0,0,0,0,0,0,0,0,0,0,0,0,0,0,0,0,0
0.448416,0,0,0,0.190629,0.697472,0.468825,0,0,0,0,0,0,0,0,0,0,0,0,0,0,0,0,0,0
0.480446,0,0,0,0.209874,0.767814,0.517268,0,0,0,0,0,0,0,0,0,0,0,0,0,0,0,0,0,0
0.512476,0,0,0,0.228535,0.836024,0.564243,0,0,0,0,0,0,0,0,0,0,0,0,0,0,0,0,0,0
0.544506,0,0,0,0.245863,0.899362,0.607863,0,0,0,0,0,0,0,0,0,0,0,0,0,0,0,0,0,0
0.576535,0,0,0,0.261859,0.957828,0.648127,0,0,0,0,0,0,0,0,0,0,0,0,0,0,0,0,0,0
0.608565,0,0,0,0.276521,1.01142,0.685036,0,0,0,0,0,0,0,0,0,0,0,0,0,0,0,0,0,0
0.640595,0,0,0,0.289851,1.06014,0.718589,0,0,0,0,0,0,0,0,0,0,0,0,0,0,0,0,0,0
0.672625,0,0,0,0.301847,1.10399,0.748788,0,0,0,0,0,0,0,0,0,0,0,0,0,0,0,0,0,0
0.704654,0,0,0,0.312511,1.14297,0.775631,0,0,0,0,0,0,0,0,0,0,0,0,0,0,0,0,0,0
0.736684,0,0,0,0.321841,1.17708,0.799118,0,0,0,0,0,0,0,0,0,0,0,0,0,0,0,0,0,0
0.768714,0,0,0,0.329839,1.20631,0.81925,0,0,0,0,0,0,0,0,0,0,0,0,0,0,0,0,0,0
0.800743,0,0,0,0.336504,1.23067,0.836027,0,0,0,0,0,0,0,0,0,0,0,0,0,0,0,0,0,0
0.832773,0,0,0,0.341836,1.25016,0.849448,0,0,0,0,0,0,0,0,0,0,0,0,0,0,0,0,0,0
0.864803,0,0,0,0.345835,1.26477,0.859515,0,0,0,0,0,0,0,0,0,0,0,0,0,0,0,0,0,0
0.896833,0,0,0,0.3485,1.27452,0.866225,0,0,0,0,0,0,0,0,0,0,0,0,0,0,0,0,0,0
0.928862,0,0,0,0.349833,1.27939,0.869581,0,0,0,0,0,0,0,0,0,0,0,0,0,0,0,0,0,0
0.960892,0,0,0,0.35,1.28,0.87,0,0,0,0,0.000247427,-0.000293676,5.4804e-05,-0.000122095,6.75223e-05,-7.09909e-05,-1.1562e-05,-0.000247427,0.000293676,-5.4804e-05,0.000122095,-6.75223e-05,7.09909e-05,1.1562e-05
0.992922,0,0,0,0.35,1.28,0.87,0,0,0,0,0.00332652,-0.0039483,0.00073681,-0.0016415,0.000907799,-0.000954433,-0.000155445,-0.00332652,0.0039483,-0.00073681,0.0016415,-0.000907799,0.000954433,0.000155445
1.02495,0,0,0,0.35,1.28,0.87,0,0,0,0,0.00992459,-0.0117797,0.00219825,-0.00489737,0.00270839,-0.00284752,-0.000463766,-0.00992459,0.0117797,-0.00219825,0.00489737,-0.00270839,0.00284752,0.000463766
1.05698,0,0,0,0.35,1.28,0.87,0,0,0,0,0.0200416,-0.0237877,0.00443913,-0.0098897,0.0054693,-0.00575026,-0.000936524,-0.0200416,0.0237877,-0.00443913,0.0098897,-0.0054693,0.00575026,0.000936524
1.08901,0,0,0,0.35,1.28,0.87,0,0,0,0,0.0336776,-0.0399725,0.00745944,-0.0166185,0.00919053,-0.00966264,-0.00157372,-0.0336776,0.0399725,-0.00745944,0.0166185,-0.00919053,0.00966264,0.00157372
1.12104,0,0,0,0.35,1.28,0.87,0,0,0,0,0.0508326,-0.060334,0.0112592,-0.0250837,0.0138721,-0.0145847,-0.00237535,-0.0508326,0.060334,-0.0112592,0.0250837,-0.0138721,0.0145847,0.00237535
1.15307,0,0,0,0.35,1.28,0.87,0,0,0,0,0.0715065,-0.0848722,0.0158384,-0.0352855,0.0195139,-0.0205164,-0.00334143,-0.0715065,0.0848722,-0.0158384,0.0352855,-0.0195139,0.0205164,0.00334143
1.1851,0,0,0,0.35,1.28,0.87,0,0,0,0,0.0956994,-0.113587,0.021197,-0.0472236,0.0261161,-0.0274577,-0.00447194,-0.0956994,0.113587,-0.021197,0.0472236,-0.0261161,0.0274577,0.00447194
1.21713,0,0,0,0.35,1.28,0.87,0,0,0,0,0.123411,-0.146479,0.027335,-0.0608983,0.0336786,-0.0354087,-0.00576688,-0.123411,0.146479,-0.027335,0.0608983,-0.0336786,0.0354087,0.00576688
1.24916,0,0,0,0.35,1.28,0.87,0,0,0,0,0.154642,-0.183547,0.0342525,-0.0763094,0.0422014,-0.0443693,-0.00722627,-0.154642,0.183547,-0.0342525,0.0763094,-0.0422014,0.0443693,0.00722627
1.28119,0,0,0,0.35,1.28,0.87,0,0,0,0,0.189392,-0.224792,0.0419494,-0.093457,0.0516845,-0.0543396,-0.00885009,-0.189392,0.224792,-0.0419494,0.093457,-0.0516845,0.0543396,0.00885009
1.31322,0,0,0,0.35,1.28,0.87,0,0,0,0,0.227661,-0.270214,0.0504258,-0.112341,0.062128,-0.0653195,-0.0106384,-0.227661,0.270214,-0.0504258,0.112341,-0.062128,0.0653195,0.0106384
1.34525,0,0,0,0.35,1.28,0.87,0,0,0,0,0.269448,-0.319813,0.0596816,-0.132961,0.0735317,-0.077309,-0.0125911,-0.269448,0.319813,-0.0596816,0.132961,-0.0735317,0.077309,0.0125911
1.37728,0,0,0,0.35,1.28,0.87,0,0,0,0,0.314755,-0.373588,0.0697168,-0.155318,0.0858958,-0.0903083,-0.0147082,-0.314755,0.373588,-0.0697168,0.155318,-0.0858958,0.0903083,0.0147082
1.40931,0,0,0,0.35,1.28,0.87,0,0,0,0,0.363581,-0.43154,0.0805315,-0.179412,0.0992202,-0.104317,-0.0169898,-0.363581,0.43154,-0.0805315,0.179412,-0.0992202,0.104317,0.0169898
1.44134,0,0,0,0.35,1.28,0.87,0,0,0,0,0.415926,-0.493669,0.0921256,-0.205242,0.113505,-0.119336,-0.0194358,-0.415926,0.493669,-0.0921256,0.205242,-0.113505,0.119336,0.0194358
1.47337,0,0,0,0.35,1.28,0.87,0,0,0,0,0.471789,-0.559974,0.104499,-0.232808,0.12875,-0.135364,-0.0220462,-0.471789,0.559974,-0.104499,0.232808,-0.12875,0.135364,0.0220462
1.5054,0,0,0,0.35,1.28,0.87,0,0,0,0,0.531175,-0.63046,0.117653,-0.262112,0.144956,-0.152403,-0.0248213,-0.531175,0.63046,-0.117653,0.262112,-0.144956,0.152403,0.0248213
1.53743,0,0,0,0.35,1.28,0.87,0,0,0,0,0.59098,-0.701444,0.130899,-0.291624,0.161277,-0.169562,-0.0276159,-0.59098,0.701444,-0.130899,0.291624,-0.161277,0.169562,0.0276159
1.56946,0,0,0,0.35,1.28,0.87,0,0,0,0,0.647284,-0.768272,0.14337,-0.319407,0.176642,-0.185716,-0.0302469,-0.647284,0.768272,-0.14337,0.319407,-0.176642,0.185716,0.0302469
1.60149,0,0,0,0.35,1.28,0.87,0,0,0,0,0.700068,-0.830922,0.155062,-0.345454,0.191047,-0.200861,-0.0327135,-0.700068,0.830922,-0.155062,0.345454,-0.191047,0.200861,0.0327135
1.63352,0,0,0,0.35,1.28,0.87,0,0,0,0,0.749334,-0.889396,0.165974,-0.369765,0.204491,-0.214996,-0.0350156,-0.749334,0.889396,-0.165974,0.369765,-0.204491,0.214996,0.0350156
1.66555,0,0,0,0.35,1.28,0.87,0,0,0,0,0.795081,-0.943694,0.176107,-0.392339,0.216975,-0.228121,-0.0371533,-0.795081,0.943694,-0.176107,0.392339,-0.216975,0.228121,0.0371533
1.69758,0,0,0,0.35,1.28,0.87,0,0,0,0,0.837308,-0.993814,0.18546,-0.413176,0.228499,-0.240237,-0.0391266,-0.837308,0.993814,-0.18546,0.413176,-0.228499,0.240237,0.0391266
1.72961,0,0,0,0.35,1.28,0.87,0,0,0,0,0.876017,-1.03976,0.194034,-0.432277,0.239063,-0.251343,-0.0409354,-0.876017,1.03976,-0.194034,0.432277,-0.239063,0.251343,0.0409354
1.76164,0,0,0,0.35,1.28,0.87,0,0,0,0,0.911207,-1.08153,0.201828,-0.449642,0.248666,-0.26144,-0.0425797,-0.911207,1.08153,-0.201828,0.449642,-0.248666,0.26144,0.0425797
1.79367,0,0,0,0.35,1.28,0.87,0,0,0,0,0.942877,-1.11912,0.208843,-0.46527,0.257309,-0.270526,-0.0440597,-0.942877,1.11912,-0.208843,0.46527,-0.257309,0.270526,0.0440597
1.8257,0,0,0,0.35,1.28,0.87,0,0,0,0,0.971029,-1.15253,0.215078,-0.479162,0.264991,-0.278604,-0.0453752,-0.971029,1.15253,-0.215078,0.479162,-0.264991,0.278604,0.0453752
1.85772,0,0,0,0.35,1.28,0.87,0,0,0,0,0.995662,-1.18177,0.220534,-0.491317,0.271713,-0.285671,-0.0465263,-0.995662,1.18177,-0.220534,0.491317,-0.271713,0.285671,0.0465263
1.88975,0,0,0,0.35,1.28,0.87,0,0,0,0,1.01678,-1.20683,0.225211,-0.501736,0.277475,-0.291729,-0.0475129,-1.01678,1.20683,-0.225211,0.501736,-0.277475,0.291729,0.0475129
1.92178,0,0,0,0.35,1.28,0.87,0,0,0,0,1.03437,-1.22771,0.229108,-0.510418,0.282277,-0.296777,-0.0483351,-1.03437,1.22771,-0.229108,0.510418,-0.282277,0.296777,0.0483351
1.95381,0,0,0,0.35,1.28,0.87,0,0,0,0,1.04845,-1.24442,0.232226,-0.517364,0.286118,-0.300816,-0.0489928,-1.04845,1.24442,-0.232226,0.517364,-0.286118,0.300816,0.0489928
1.98584,0,0,0,0.35,1.28,0.87,0,0,0,0,1.059,-1.25695,0.234564,-0.522574,0.288999,-0.303845,-0.0494861,-1.059,1.25695,-0.234564,0.522574,-0.288999,0.303845,0.0494861
2.01787,0,0,0,0.35,1.28,0.87,0,0,0,0,1.06604,-1.2653,0.236123,-0.526046,0.29092,-0.305864,-0.049815,-1.06604,1.2653,-0.236123,0.526046,-0.29092,0.305864,0.049815
2.0499,0,0,0,0.35,1.28,0.87,0,0,0,0,1.06956,-1.26948,0.236903,-0.527783,0.29188,-0.306874,-0.0499794,-1.06956,1.26948,-0.236903,0.527783,-0.29188,0.306874,0.0499794
2.08193,-4,0.00251428,12.5613,0.349993,1.28011,0.870257,0,0,0,0,-0.999538,-0.0504411,-0.593443,-0.0302431,1.99941,0.0298854,-0.0300069,0.999649,0.0504411,0.593443,0.0302501,-1.99931,-0.0299271,-0.0299722
2.11396,-4,0.00251428,12.5613,0.349937,1.28103,0.872313,0,0,0,0,-0.995843,-0.0539699,-0.588986,-0.0321881,1.99465,0.0289685,-0.0300625,0.996843,0.0539699,0.588986,0.0322506,-1.99375,-0.0293436,-0.0297499
2.14599,-4,0.00251428,12.5613,0.349826,1.28287,0.876425,0,0,0,0,-0.988452,-0.0610275,-0.580072,-0.0360781,1.98515,0.0271346,-0.0301737,0.99123,0.0610275,0.580072,0.0362518,-1.98263,-0.0281766,-0.0293054
2.17802,-4,0.00251428,12.5613,0.34966,1.28562,0.882594,0,0,0,0,-0.977365,-0.0716138,-0.566702,-0.0419131,1.9709,0.0243838,-0.0303404,0.982811,0.0716138,0.566702,0.0422535,-1.96596,-0.0264261,-0.0286385
2.21005,-4,0.00251428,12.5613,0.349437,1.28928,0.890818,0,0,0,0,-0.962583,-0.085729,-0.548875,-0.0496931,1.95189,0.0207161,-0.0305627,0.971586,0.085729,0.548875,0.0502558,-1.94373,-0.0240921,-0.0277494
2.24208,-4,0.00251428,12.5613,0.349159,1.29387,0.901099,0,0,0,0,-0.944105,-0.103373,-0.52659,-0.0594182,1.92814,0.0161314,-0.0308405,0.957554,0.103373,0.52659,0.0602587,-1.91595,-0.0211746,-0.0266379
2.27411,-4,0.00251428,12.5613,0.348826,1.29937,0.913436,0,0,0,0,-0.921932,-0.124546,-0.499849,-0.0710882,1.89963,0.0106299,-0.0311739,0.940716,0.124546,0.499849,0.0722621,-1.88261,-0.0176735,-0.0253042
2.30614,-4,0.00251428,12.5613,0.348437,1.30579,0.927829,0,0,0,0,-0.896064,-0.149247,-0.468652,-0.0847032,1.86637,0.00421135,-0.0315629,0.921071,0.149247,0.468652,0.0862661,-1.84371,-0.013589,-0.0237482
2.33817,-4,0.00251428,12.5613,0.347992,1.31312,0.944278,0,0,0,0,-0.8665,-0.177478,-0.432997,-0.100263,1.82836,-0.00312409,-0.0320075,0.89862,0.177478,0.432997,0.102271,-1.79925,-0.00892104,-0.0219699
2.3702,-4,0.00251428,12.5613,0.347492,1.32138,0.962784,0,0,0,0,-0.83324,-0.209237,-0.392885,-0.117768,1.78559,-0.0113765,-0.0325077,0.873363,0.209237,0.392885,0.120276,-1.74923,-0.00366953,-0.0199693
2.40223,-4,0.00251428,12.5613,0.346937,1.33055,0.983345,0,0,0,0,-0.796285,-0.244525,-0.348317,-0.137218,1.73808,-0.0205458,-0.0330634,0.845299,0.244525,0.348317,0.140282,-1.69366,0.00216548,-0.0177465
2.43426,-4,0.00251428,12.5613,0.346325,1.34063,1.00596,0,0,0,0,-0.755635,-0.283341,-0.299292,-0.158613,1.68582,-0.030632,-0.0336747,0.814429,0.283341,0.299292,0.162288,-1.63253,0.00858399,-0.0153013
2.46629,-4,0.00251428,12.5613,0.345658,1.35164,1.03064,0,0,0,0,-0.711289,-0.325687,-0.24581,-0.181953,1.6288,-0.0416351,-0.0343415,0.780753,0.325687,0.24581,0.186295,-1.56585,0.015586,-0.0126339
2.49832,-4,0.00251428,12.5613,0.344936,1.36356,1.05737,0,0,0,0,-0.663247,-0.371561,-0.187871,-0.207238,1.56703,-0.0535552,-0.035064,0.74427,0.371561,0.187871,0.212302,-1.4936,0.0231715,-0.00974419
2.53035,-4,0.00251428,12.5613,0.344158,1.37639,1.08615,0,0,0,0,-0.61151,-0.420964,-0.125475,-0.234468,1.50051,-0.0663922,-0.035842,0.704981,0.420964,0.125475,0.24031,-1.4158,0.0313405,-0.00663219
2.56238,-4,0.00251428,12.5613,0.343327,1.3901,1.1169,0,0,0,0,-0.556245,-0.473736,-0.0588243,-0.263555,1.42946,-0.0801047,-0.036673,0.663013,0.473736,0.0588243,0.270228,-1.3327,0.0400666,-0.00330795
2.59441,-4,0.00251428,12.5613,0.342482,1.40405,1.14816,0,0,0,0,-0.500056,-0.52739,0.00894035,-0.293129,1.35721,-0.0940463,-0.037518,0.620343,0.52739,-0.00894035,0.300647,-1.2482,0.0489386,7.1838e-05
2.62644,-4,0.00251428,12.5613,0.341637,1.41799,1.17943,0,0,0,0,-0.443867,-0.581045,0.0767053,-0.322702,1.28497,-0.107988,-0.0383629,0.577673,0.581045,-0.0767053,0.331065,-1.16371,0.0578105,0.00345164
2.65847,-4,0.00251428,12.5613,0.340792,1.43193,1.21069,0,0,0,0,-0.387677,-0.634699,0.14447,-0.352275,1.21273,-0.12193,-0.0392079,0.535003,0.634699,-0.14447,0.361483,-1.07921,0.0666825,0.00683144
2.6905,-4,0.00251428,12.5613,0.339947,1.44587,1.24195,0,0,0,0,-0.331488,-0.688353,0.212235,-0.381848,1.14048,-0.135871,-0.0400528,0.492333,0.688353,-0.212235,0.391901,-0.994719,0.0755545,0.0102112
2.72253,-4,0.00251428,12.5613,0.339102,1.45981,1.27322,0,0,0,0,-0.275299,-0.742008,0.28,-0.411422,1.06824,-0.149813,-0.0408978,0.449663,0.742008,-0.28,0.422319,-0.910224,0.0844265,0.013591
2.75456,-4,0.00251428,12.5613,0.338257,1.47375,1.30448,0,0,0,0,-0.21911,-0.795662,0.347765,-0.440995,0.995998,-0.163755,-0.0417427,0.406993,0.795662,-0.347765,0.452738,-0.825729,0.0932984,0.0169708
2.78659,-4,0.00251428,12.5613,0.337412,1.4877,1.33574,0,0,0,0,-0.162921,-0.849316,0.41553,-0.470568,0.923755,-0.177696,-0.0425877,0.364323,0.849316,-0.41553,0.483156,-0.741234,0.10217,0.0203506
2.81862,-4,0.00251428,12.5613,0.336567,1.50164,1.36701,0,0,0,0,-0.106732,-0.902971,0.483295,-0.500141,0.851512,-0.191638,-0.0434326,0.321653,0.902971,-0.483295,0.513574,-0.656739,0.111042,0.0237304
2.85065,-4,0.00251428,12.5613,0.335742,1.51526,1.39756,0,0,0,0,-0.0518208,-0.955404,0.549518,-0.529042,0.780912,-0.205263,-0.0442583,0.279954,0.955404,-0.549518,0.5433,-0.574167,0.119713,0.0270333
2.88268,-4,0.00251428,12.5613,0.334971,1.52798,1.42609,0,0,0,0,-0.000545616,-1.00437,0.611357,-0.556029,0.714987,-0.217985,-0.0450294,0.241016,1.00437,-0.611357,0.571058,-0.497061,0.127809,0.0301176
2.91471,-4,0.00251428,12.5613,0.334255,1.53979,1.45256,0,0,0,0,0.047034,-1.0498,0.668739,-0.581071,0.653813,-0.22979,-0.0457449,0.204884,1.0498,-0.668739,0.596815,-0.425513,0.135321,0.0329795
2.94674,-4,0.00251428,12.5613,0.333595,1.55068,1.47698,0,0,0,0,0.0909181,-1.0917,0.721664,-0.604167,0.597391,-0.240679,-0.0464048,0.171558,1.0917,-0.721664,0.620572,-0.359522,0.14225,0.0356191
2.97877,-4,0.00251428,12.5613,0.332991,1.56065,1.49934,0,0,0,0,0.131107,-1.13008,0.770132,-0.625319,0.54572,-0.250651,-0.0470091,0.141039,1.13008,-0.770132,0.642328,-0.299088,0.148596,0.0380365
3.0108,-4,0.00251428,12.5613,0.332442,1.56971,1.51964,0,0,0,0,0.1676,-1.16493,0.814143,-0.644526,0.4988,-0.259705,-0.0475579,0.113326,1.16493,-0.814143,0.662084,-0.244211,0.154358,0.0402316
3.04283,-4,0.00251428,12.5613,0.331949,1.57784,1.53789,0,0,0,0,0.200397,-1.19624,0.853697,-0.661788,0.456632,-0.267843,-0.0480511,0.08842,1.19624,-0.853697,0.679839,-0.194891,0.159536,0.0422044
3.07486,-4,0.00251428,12.5613,0.331511,1.58506,1.55408,0,0,0,0,0.2295,-1.22403,0.888795,-0.677105,0.419215,-0.275064,-0.0484887,0.0663199,1.22403,-0.888795,0.695594,-0.151128,0.164132,0.0439549
3.10688,-4,0.00251428,12.5613,0.331129,1.59137,1.56822,0,0,0,0,0.254906,-1.24829,0.919436,-0.690477,0.386549,-0.281368,-0.0488708,0.0470261,1.24829,-0.919436,0.709348,-0.112923,0.168143,0.0454831
3.13891,-4,0.00251428,12.5613,0.330803,1.59675,1.5803,0,0,0,0,0.276617,-1.26903,0.94562,-0.701904,0.358635,-0.286755,-0.0491973,0.0305388,1.26903,-0.94562,0.721101,-0.0802748,0.171571,0.046789
3.17094,-4,0.00251428,12.5613,0.330532,1.60122,1.59032,0,0,0,0,0.294633,-1.28623,0.967347,-0.711386,0.335472,-0.291225,-0.0494682,0.0168577,1.28623,-0.967347,0.730854,-0.0531837,0.174416,0.0478727
3.20297,-4,0.00251428,12.5613,0.330316,1.60478,1.59829,0,0,0,0,0.308953,-1.2999,0.984617,-0.718923,0.31706,-0.294778,-0.0496835,0.0059831,1.2999,-0.984617,0.738606,-0.0316497,0.176677,0.048734
3.235,-4,0.00251428,12.5613,0.330157,1.60741,1.6042,0,0,0,0,0.319578,-1.31005,0.99743,-0.724514,0.3034,-0.297414,-0.0498433,-0.00208519,1.31005,-0.99743,0.744358,-0.0156729,0.178354,0.0493731
3.26703,-4,0.00251428,12.5613,0.330053,1.60913,1.60806,0,0,0,0,0.326507,-1.31666,1.00579,-0.728161,0.294492,-0.299133,-0.0499475,-0.00734711,1.31666,-1.00579,0.748109,-0.00525324,0.179448,0.0497899
3.29906,-4,0.00251428,12.5613,0.330004,1.60994,1.60986,0,0,0,0,0.32974,-1.31975,1.00969,-0.729863,0.290334,-0.299936,-0.0499961,-0.00980268,1.31975,-1.00969,0.749859,-0.000390737,0.179959,0.0499844
3.33109,-4,0.00251428,12.5613,0.33001,1.60983,1.60961,0,0,0,0,0.330385,-1.31997,1.0096,-0.729895,0.290001,-0.300004,-0.05,-0.0105515,1.31997,-1.0096,0.749884,-0.000151925,0.180066,0.05
3.36312,-4,0.00251428,12.5613,0.330094,1.60845,1.60653,0,0,0,0,0.333465,-1.31977,1.00638,-0.729054,0.290009,-0.300033,-0.05,-0.0149636,1.31977,-1.00638,0.74896,-0.00136733,0.180595,0.05
3.39515,-4,0.00251428,12.5613,0.33026,1.60571,1.60037,0,0,0,0,0.339625,-1.31935,0.999945,-0.727373,0.290026,-0.300091,-0.05,-0.0237877,1.31935,-0.999945,0.747112,-0.00379813,0.181652,0.05
3.42718,-4,0.00251428,12.5613,0.33051,1.60159,1.59113,0,0,0,0,0.348866,-1.31873,0.990293,-0.72485,0.290051,-0.300178,-0.05,-0.0370239,1.31873,-0.990293,0.74434,-0.00744433,0.183238,0.05
3.45921,-4,0.00251428,12.5613,0.330843,1.59609,1.57881,0,0,0,0,0.361186,-1.31789,0.977423,-0.721487,0.290084,-0.300295,-0.05,-0.0546722,1.31789,-0.977423,0.740644,-0.0123059,0.185352,0.05
3.49124,-4,0.00251428,12.5613,0.331259,1.58922,1.56341,0,0,0,0,0.376587,-1.31685,0.961336,-0.717283,0.290126,-0.300441,-0.05,-0.0767326,1.31685,-0.961336,0.736024,-0.0183829,0.187995,0.05
3.52327,-4,0.00251428,12.5613,0.331759,1.58098,1.54493,0,0,0,0,0.395068,-1.3156,0.942031,-0.712238,0.290176,-0.300616,-0.05,-0.103205,1.3156,-0.942031,0.73048,-0.0256753,0.191167,0.05
3.5553,-4,0.00251428,12.5613,0.332341,1.57137,1.52337,0,0,0,0,0.416629,-1.31415,0.919508,-0.706353,0.290234,-0.300819,-0.05,-0.134089,1.31415,-0.919508,0.724011,-0.0341831,0.194867,0.05
3.58733,-4,0.00251428,12.5613,0.333007,1.56038,1.49873,0,0,0,0,0.44127,-1.31248,0.893768,-0.699626,0.290301,-0.301053,-0.05,-0.169386,1.31248,-0.893768,0.716619,-0.0439063,0.199096,0.05
3.61936,-4,0.00251428,12.5613,0.333757,1.54802,1.47101,0,0,0,0,0.468991,-1.31061,0.864811,-0.692059,0.290376,-0.301315,-0.05,-0.209095,1.31061,-0.864811,0.708303,-0.0548449,0.203854,0.05
3.65139,-4,0.00251428,12.5613,0.334589,1.53428,1.44021,0,0,0,0,0.499792,-1.30853,0.832636,-0.683651,0.290459,-0.301606,-0.05,-0.253215,1.30853,-0.832636,0.699062,-0.066999,0.20914,0.05
3.68342,-4,0.00251428,12.5613,0.335505,1.51917,1.40633,0,0,0,0,0.533673,-1.30624,0.797244,-0.674403,0.29055,-0.301927,-0.05,-0.301748,1.30624,-0.797244,0.688898,-0.0803684,0.214955,0.05
3.71545,-4,0.00251428,12.5613,0.336504,1.50269,1.36937,0,0,0,0,0.570635,-1.30374,0.758634,-0.664313,0.29065,-0.302276,-0.05,-0.354693,1.30374,-0.758634,0.67781,-0.0949532,0.221298,0.05
3.74748,-4,0.00251428,12.5613,0.337586,1.48483,1.32932,0,0,0,0,0.610676,-1.30104,0.716807,-0.653383,0.290759,-0.302655,-0.05,-0.41205,1.30104,-0.716807,0.665797,-0.110753,0.22817,0.05
3.77951,-4,0.00251428,12.5613,0.338751,1.4656,1.2862,0,0,0,0,0.653798,-1.29812,0.671762,-0.641612,0.290875,-0.303063,-0.05,-0.473819,1.29812,-0.671762,0.652861,-0.127769,0.235571,0.05
3.81154,-4,0.00251428,12.5613,0.34,1.445,1.24,0,0,0,0,0.7,-1.295,0.6235,-0.629,0.291,-0.3035,-0.05,-0.54,1.295,-0.6235,0.639,-0.146,0.2435,0.05
3.84357,-4,0.00251428,12.5613,0.341249,1.4244,1.1938,0,0,0,0,0.746202,-1.29188,0.575238,-0.616388,0.291125,-0.303937,-0.05,-0.606181,1.29188,-0.575238,0.625139,-0.164231,0.251429,0.05
3.8756,-4,0.00251428,12.5613,0.342414,1.40517,1.15068,0,0,0,0,0.789324,-1.28896,0.530193,-0.604617,0.291241,-0.304345,-0.05,-0.66795,1.28896,-0.530193,0.612203,-0.181247,0.25883,0.05
3.90763,-4,0.00251428,12.5613,0.343496,1.38731,1.11063,0,0,0,0,0.829365,-1.28626,0.488366,-0.593687,0.29135,-0.304724,-0.05,-0.725307,1.28626,-0.488366,0.60019,-0.197047,0.265702,0.05
3.93966,-4,0.00251428,12.5613,0.344495,1.37083,1.07367,0,0,0,0,0.866327,-1.28376,0.449756,-0.583597,0.29145,-0.305073,-0.05,-0.778252,1.28376,-0.449756,0.589102,-0.211632,0.272045,0.05
3.97169,-4,0.00251428,12.5613,0.345411,1.35572,1.03979,0,0,0,0,0.900208,-1.28147,0.414364,-0.574349,0.291541,-0.305394,-0.05,-0.826785,1.28147,-0.414364,0.578938,-0.225001,0.27786,0.05
4.00372,-4,0.00251428,12.5613,0.346243,1.34198,1.00899,0,0,0,0,0.931009,-1.27939,0.382189,-0.565941,0.291624,-0.305685,-0.05,-0.870905,1.27939,-0.382189,0.569697,-0.237155,0.283146,0.05
4.03575,-4,0.00251428,12.5613,0.346993,1.32962,0.98127,0,0,0,0,0.95873,-1.27752,0.353232,-0.558374,0.291699,-0.305947,-0.05,-0.910614,1.27752,-0.353232,0.561381,-0.248094,0.287904,0.05
4.06778,-4,0.00251428,12.5613,0.347659,1.31863,0.956629,0,0,0,0,0.983371,-1.27585,0.327492,-0.551647,0.291766,-0.306181,-0.05,-0.945911,1.27585,-0.327492,0.553989,-0.257817,0.292133,0.05
4.09981,-4,0.00251428,12.5613,0.348241,1.30902,0.935068,0,0,0,0,1.00493,-1.2744,0.304969,-0.545762,0.291824,-0.306384,-0.05,-0.976795,1.2744,-0.304969,0.54752,-0.266325,0.295833,0.05
4.13184,-4,0.00251428,12.5613,0.348741,1.30078,0.916587,0,0,0,0,1.02341,-1.27315,0.285664,-0.540717,0.291874,-0.306559,-0.05,-1.00327,1.27315,-0.285664,0.541976,-0.273617,0.299005,0.05
4.16387,-4,0.00251428,12.5613,0.349157,1.29391,0.901186,0,0,0,0,1.03881,-1.27211,0.269577,-0.536513,0.291916,-0.306705,-0.05,-1.02533,1.27211,-0.269577,0.537356,-0.279694,0.301648,0.05
4.1959,-4,0.00251428,12.5613,0.34949,1.28841,0.888866,0,0,0,0,1.05113,-1.27127,0.256707,-0.53315,0.291949,-0.306822,-0.05,-1.04298,1.27127,-0.256707,0.53366,-0.284556,0.303762,0.05
4.22793,-4,0.00251428,12.5613,0.34974,1.28429,0.879625,0,0,0,0,1.06037,-1.27065,0.247055,-0.530627,0.291974,-0.306909,-0.05,-1.05621,1.27065,-0.247055,0.530888,-0.288202,0.305348,0.05
4.25996,-4,0.00251428,12.5613,0.349906,1.28155,0.873465,0,0,0,0,1.06653,-1.27023,0.24062,-0.528946,0.291991,-0.306967,-0.05,-1.06504,1.27023,-0.24062,0.52904,-0.290633,0.306405,0.05
4.29199,-4,0.00251428,12.5613,0.34999,1.28017,0.870385,0,0,0,0,1.06961,-1.27003,0.237402,-0.528105,0.291999,-0.306996,-0.05,-1.06945,1.27003,-0.237402,0.528116,-0.291848,0.306934,0.05
4.308,-4,0.00251428,12.5613,0.35,1.28,0.87,0,0,0,0,1.07,-1.27,0.237,-0.528,0.292,-0.307,-0.05,-1.07,1.27,-0.237,0.528,-0.292,0.307,0.05
